; HEADER_BLOCK_START
; generated by Creality_Print V5.0.3.8744 on 2024-07-02 at 11:07:10
; total layer number: 120
; filament_density: 1.24
; filament_diameter: 1.75
; max_z_height: 19.24
; HEADER_BLOCK_END

; MINX = 57.73
; MINY = 64.11
; MINZ = -0.00
; MAXX = 159.39
; MAXY = 145.86
; MAXZ = 19.29

; THUMBNAIL_BLOCK_START

;
; THUMBNAIL_BLOCK_END

; THUMBNAIL_BLOCK_START

;
; THUMBNAIL_BLOCK_END

; external perimeters extrusion width = 0.42mm
; perimeters extrusion width = 0.45mm
; infill extrusion width = 0.45mm
; solid infill extrusion width = 0.42mm
; top infill extrusion width = 0.42mm
; first layer extrusion width = 0.46mm

; external perimeters extrusion width = 0.42mm
; perimeters extrusion width = 0.45mm
; infill extrusion width = 0.45mm
; solid infill extrusion width = 0.42mm
; top infill extrusion width = 0.42mm
; first layer extrusion width = 0.46mm

; external perimeters extrusion width = 0.42mm
; perimeters extrusion width = 0.45mm
; infill extrusion width = 0.45mm
; solid infill extrusion width = 0.42mm
; top infill extrusion width = 0.42mm
; first layer extrusion width = 0.46mm

; external perimeters extrusion width = 0.42mm
; perimeters extrusion width = 0.45mm
; infill extrusion width = 0.45mm
; solid infill extrusion width = 0.42mm
; top infill extrusion width = 0.42mm
; first layer extrusion width = 0.46mm

; EXECUTABLE_BLOCK_START
M73 P0 R62
M201 X5000 Y5000 Z500 E5000
M203 X500 Y500 Z30 E100
M204 P5000 R2500 T5000 ; sets acceleration (P, T) and retract acceleration (R), mm/sec^2
M205 X10.00 Y10.00 Z0.40 E5.00 ; sets the jerk limits, mm/sec
;TYPE:Custom
M220 S100 ;Reset Feedrate 
M221 S100 ;Reset Flowrate 
 
M140 S60 ;Set final bed temp 
G28 ;Home 
 
G92 E0 ;Reset Extruder 
G1 Z2.0 F3000 ;Move Z Axis up 
M104 S220 ;Set final nozzle temp 
G1 X-2.1 Y20 Z0.28 F5000.0 ;Move to start position 
M190 S60 ;Wait for bed temp to stabilize 
M109 S220 ;Wait for nozzle temp to stabilize 
G1 X-2.1 Y145.0 Z0.28 F1500.0 E15 ;Draw the first line 
G1 X-2.4 Y145.0 Z0.28 F5000.0 ;Move to side a little 
G1 X-2.4 Y20 Z0.28 F1500.0 E30 ;Draw the second line 
G92 E0  ;Reset Extruder 
G1 E-1.0000 F1800 ;Retract a bit 
G1 Z2.0 F3000 ;Move Z Axis up 
G1 E0.0000 F1800
G90
G21
M83 ; use relative distances for extrusion
; filament start gcode
M106 S0
;LAYER_CHANGE
;Z:0.2
;HEIGHT:0.2
;BEFORE_LAYER_CHANGE
;0.2
G92 E0

G1 E-1.2 F1800
;_SET_FAN_SPEED_CHANGING_LAYER
M204 P500
M205 X8 Y8
; printing object cap1.stl id:0 copy 0
M204 T500
G1 Z.4 F9000
G1 X90.165 Y71.107
G1 Z.4
G1 Z.2
G1 E1.2 F1800
;TYPE:Inner wall
;WIDTH:0.459999
G1 X90.165 Y78.269 E.2434
G1 X87.077 Y81.027 E.1407
G1 X58.459 Y81.027 E.97265
G1 X58.459 Y70.775 E.34841
;WIDTH:0.501417
G1 X58.479 Y70.368 E.01523
;WIDTH:0.542835
G1 X58.5 Y69.961 E.0166
G1 X58.479 Y69.571 E.0159
;WIDTH:0.501417
G1 X58.459 Y69.181 E.01459
;WIDTH:0.459999
G1 X58.459 Y65.45 E.12682
G1 X59.08 Y64.829 E.02985
G1 X62.165 Y64.829 E.10485
G1 X62.175 Y69.965 E.17457
;WIDTH:0.445706
G1 X62.172 Y70.477 E.0168
;WIDTH:0.459999
G1 X62.165 Y76.704 E.21162
G1 X62.174 Y76.812 E.00369
G1 X62.253 Y77.024 E.00769
G1 X62.468 Y77.24 E.01038
G1 X62.79 Y77.329 E.01135
G1 X85.941 Y77.32 E.78683
G1 X86.25 Y77.17 E.01166
G1 X86.433 Y76.88 E.01167
G1 X86.459 Y76.704 E.00605
G1 X86.459 Y64.829 E.40358
G1 X89.544 Y64.829 E.10485
G1 X90.165 Y65.45 E.02985
G1 X90.165 Y65.889 E.01492
G1 X90.165 Y69.38 E.11863
;WIDTH:0.500247
G1 X90.144 Y69.662 E.01054
;WIDTH:0.540495
G1 X90.124 Y69.944 E.01147
;WIDTH:0.546
G1 X90.122 Y70.488 E.02232
G1 X90.143 Y70.765 E.01139
;WIDTH:0.503
G1 X90.165 Y71.042 E.01042
;WIDTH:0.459999
G1 X90.165 Y71.067 E.00085
G1 E-.84
;WIPE_START
G1 X90.165 Y72.067 E-.36
;WIPE_END
G1 Z.6 F9000
G1 X62.79 Y76.912 Z.6
G1 Z.2
G1 E1.2 F1800
;TYPE:Outer wall
G1 X85.833 Y76.912 E.78315
G1 X85.972 Y76.859 E.00505
G1 X86.042 Y76.704 E.00579
G1 X86.042 Y64.412 E.41775
G1 X89.716 Y64.412 E.12489
G1 X90.582 Y65.277 E.04159
G1 X90.582 Y65.889 E.02079
G1 X90.582 Y78.484 E.42806
G1 X90.526 Y78.505 E.00203
G1 X87.236 Y81.444 E.14991
G1 X58.042 Y81.444 E.99224
G1 X58.042 Y65.277 E.54945
G1 X58.907 Y64.412 E.04159
G1 X62.582 Y64.412 E.12489
G1 X62.582 Y76.704 E.41775
G1 X62.642 Y76.851 E.00541
G1 X62.753 Y76.897 E.00408
G1 E-.84
;WIPE_START
G1 X63.753 Y76.897 E-.36
;WIPE_END
G1 Z.6 F9000
G1 X88.66 Y71.486 Z.6
G1 Z.2
G1 E1.2 F1800
;TYPE:Inner wall
G1 X88.559 Y71.531 E.00376
G1 X88.238 Y71.579 E.01105
G1 X87.754 Y71.494 E.0167
G1 X87.33 Y71.26 E.01645
G1 X87.032 Y70.922 E.01532
G1 X86.923 Y70.694 E.00859
G1 X86.83 Y70.182 E.01769
;WIDTH:0.458843
G1 X86.923 Y69.67 E.01764
;WIDTH:0.459999
G1 X87.032 Y69.442 E.00859
G1 X87.33 Y69.104 E.01532
G1 X87.536 Y68.964 E.00849
G1 X87.961 Y68.812 E.01532
G1 X88.411 Y68.804 E.01532
G1 X88.841 Y68.94 E.01532
G1 X89.205 Y69.206 E.01532
G1 X89.465 Y69.574 E.01532
;WIDTH:0.500247
G1 X89.549 Y69.785 E.00848
;WIDTH:0.540495
G1 X89.633 Y69.997 E.00923
;WIDTH:0.550254
G1 X89.616 Y70.504 E.02098
G1 X89.46 Y70.775 E.0129
;WIDTH:0.505127
G1 X89.305 Y71.045 E.01175
;WIDTH:0.459999
G1 X88.972 Y71.349 E.01532
G1 X88.697 Y71.47 E.0102
G1 X88.498 Y71.116 F9000
;TYPE:Outer wall
G1 F1800
G1 X88.492 Y71.119 E.00023
G1 X88.168 Y71.157 E.01107
G1 X87.771 Y71.055 E.01396
G1 X87.515 Y70.869 E.01076
G1 X87.327 Y70.594 E.01131
G1 X87.238 Y70.132 E.01599
G1 X87.364 Y69.694 E.01547
G1 X87.564 Y69.449 E.01076
G1 X87.771 Y69.309 E.00849
G1 X88.139 Y69.207 E.01301
G1 X88.455 Y69.235 E.01076
G1 X88.744 Y69.362 E.01076
G1 X88.978 Y69.575 E.01076
G1 X89.132 Y69.852 E.01076
G1 X89.19 Y70.163 E.01076
G1 X89.144 Y70.476 E.01076
G1 X89.002 Y70.759 E.01076
G1 X88.776 Y70.981 E.01076
G1 X88.534 Y71.099 E.00916
G1 E-.84
;WIPE_START
G1 X88.492 Y71.119 E-.01687
G1 X88.168 Y71.157 E-.11729
G1 X87.771 Y71.055 E-.14782
G1 X87.595 Y70.927 E-.07802
;WIPE_END
G1 Z.6 F9000
G1 X59.416 Y71.131 Z.6
G1 Z.2
G1 E1.2 F1800
;TYPE:Inner wall
G1 X59.232 Y70.922 E.00948
;WIDTH:0.492012
G1 X59.117 Y70.631 E.01145
;WIDTH:0.524025
G1 X59.002 Y70.34 E.01226
;WIDTH:0.542835
G1 X58.993 Y70.021 E.013
G1 X59.112 Y69.732 E.01277
;WIDTH:0.501417
G1 X59.232 Y69.442 E.01171
;WIDTH:0.459999
G1 X59.53 Y69.104 E.01532
G1 X59.92 Y68.879 E.01532
G1 X60.362 Y68.79 E.01532
G1 X60.809 Y68.847 E.01531
G1 X61.215 Y69.044 E.01532
G1 X61.536 Y69.36 E.01532
G1 X61.736 Y69.763 E.01528
;WIDTH:0.452303
G1 X61.79 Y70.206 E.01491
;WIDTH:0.445706
G1 X61.77 Y70.455 E.0082
;WIDTH:0.459999
G1 X61.618 Y70.878 E.01526
G1 X61.333 Y71.227 E.01532
G1 X60.951 Y71.466 E.01532
G1 X60.514 Y71.571 E.01528
G1 X60.279 Y71.565 E.00799
G1 X59.954 Y71.494 E.01131
G1 X59.53 Y71.26 E.01645
G1 X59.443 Y71.161 E.00448
G1 X59.714 Y70.867 F9000
;TYPE:Outer wall
G1 F1800
G1 X59.527 Y70.594 E.01126
G1 X59.438 Y70.132 E.01599
G1 X59.564 Y69.694 E.01547
G1 X59.764 Y69.449 E.01076
G1 X60.032 Y69.281 E.01076
G1 X60.34 Y69.207 E.01076
G1 X60.655 Y69.235 E.01075
G1 X60.944 Y69.362 E.01076
G1 X61.178 Y69.575 E.01076
G1 X61.332 Y69.852 E.01076
G1 X61.39 Y70.163 E.01076
G1 X61.363 Y70.411 E.00849
G1 X61.202 Y70.759 E.01301
G1 X60.976 Y70.981 E.01076
G1 X60.692 Y71.119 E.01076
G1 X60.368 Y71.157 E.01107
G1 X59.971 Y71.055 E.01396
G1 X59.746 Y70.891 E.00945
G1 E-.84
;WIPE_START
G1 X59.527 Y70.594 E-.13292
G1 X59.438 Y70.132 E-.1694
G1 X59.482 Y69.978 E-.05768
;WIPE_END
G1 Z.6 F9000
G1 X61.099 Y64.996
G1 Z.6
G1 Z.2
G1 E1.2 F1800
;TYPE:Bottom surface
;WIDTH:0.486213
G1 F4800
G1 X61.81 Y65.707 E.03632
G1 X61.81 Y66.334 E.02265
G1 X60.66 Y65.184 E.05876
G1 X60.033 Y65.184 E.02265
G1 X61.81 Y66.961 E.09079
G1 X61.81 Y67.588 E.02265
G1 X59.406 Y65.184 E.12281
G1 X59.226 Y65.184 E.00648
G1 X59.003 Y65.407 E.01143
G1 X61.81 Y68.215 E.14341
G1 X61.81 Y68.841 E.02265
G1 X58.814 Y65.845 E.15307
G1 X58.814 Y66.473 E.02267
G1 X60.834 Y68.492 E.10318
G1 X60.642 Y68.45 E.00711
G1 X60.316 Y68.434 E.01178
G1 X60.169 Y68.455 E.00535
G1 X58.815 Y67.1 E.06918
G1 X58.816 Y67.728 E.02267
G1 X59.687 Y68.599 E.04449
G1 X59.547 Y68.664 E.00556
G1 X59.299 Y68.838 E.01096
G1 X58.817 Y68.356 E.02463
G1 X58.818 Y68.984 E.02267
G1 X59.132 Y69.298 E.01605
G1 E-.84 F1800
;WIPE_START
G1 F4800
G1 X58.818 Y68.984 E-.15997
G1 X58.817 Y68.428 E-.20003
;WIPE_END
G1 Z.6 F9000
G1 X89.564 Y70.942 Z.6
G1 Z.2
G1 E1.2 F1800
;WIDTH:0.465106
G1 F4800
G1 X89.81 Y71.188 E.01195
G1 X89.81 Y71.785 E.02054
G1 X89.442 Y71.416 E.01792
G1 X89.382 Y71.479 E.00298
G1 X89.107 Y71.679 E.01169
G1 X89.81 Y72.382 E.0342
G1 X89.81 Y72.979 E.02054
G1 X88.689 Y71.858 E.05452
G1 X88.25 Y71.934 E.01533
G1 X88.16 Y71.926 E.00311
G1 X89.81 Y73.576 E.08026
G1 X89.81 Y74.173 E.02054
G1 X87.317 Y71.68 E.1213
G1 X87.121 Y71.547 E.00814
G1 X86.908 Y71.345 E.0101
G1 X86.813 Y71.22 E.00538
G1 X86.813 Y71.773 E.01901
G1 X89.81 Y74.77 E.1458
G1 X89.81 Y75.367 E.02054
G1 X86.813 Y72.37 E.1458
G1 X86.813 Y72.967 E.02054
G1 X89.81 Y75.964 E.1458
G1 X89.81 Y76.561 E.02054
G1 X86.813 Y73.564 E.1458
G1 X86.813 Y74.161 E.02054
G1 X89.81 Y77.158 E.1458
G1 X89.81 Y77.755 E.02054
G1 X86.813 Y74.758 E.1458
G1 X86.813 Y75.355 E.02054
G1 X89.682 Y78.224 E.13958
G1 X89.367 Y78.506 E.01455
G1 X86.813 Y75.952 E.12424
G1 X86.813 Y76.55 E.02054
G1 X89.051 Y78.788 E.1089
G1 X88.736 Y79.069 E.01455
G1 X86.733 Y77.066 E.09746
G1 X86.625 Y77.284 E.00835
G1 X86.495 Y77.426 E.00661
G1 X88.421 Y79.351 E.09368
G1 X88.105 Y79.633 E.01455
G1 X86.109 Y77.636 E.09715
G1 X86.045 Y77.662 E.00237
G1 X85.841 Y77.684 E.00706
G1 X85.559 Y77.684 E.00969
G1 X87.79 Y79.915 E.10854
G1 X87.475 Y80.196 E.01455
G1 X84.962 Y77.684 E.12225
G1 X84.365 Y77.684 E.02054
G1 X87.159 Y80.478 E.13596
G1 X86.942 Y80.672 E.01003
G1 X86.756 Y80.672 E.00638
G1 X83.768 Y77.684 E.1454
G1 X83.171 Y77.684 E.02054
G1 X86.159 Y80.672 E.1454
G1 X85.562 Y80.672 E.02054
G1 X82.574 Y77.684 E.1454
G1 X81.977 Y77.684 E.02054
G1 X84.965 Y80.672 E.1454
G1 X84.368 Y80.672 E.02054
G1 X81.38 Y77.684 E.1454
G1 X80.783 Y77.684 E.02054
G1 X83.771 Y80.672 E.1454
G1 X83.174 Y80.672 E.02054
G1 X80.186 Y77.684 E.1454
G1 X79.588 Y77.684 E.02054
G1 X82.577 Y80.672 E.1454
G1 X81.98 Y80.672 E.02054
G1 X78.991 Y77.684 E.1454
G1 X78.394 Y77.684 E.02054
G1 X81.383 Y80.672 E.1454
G1 X80.786 Y80.672 E.02054
G1 X77.797 Y77.684 E.1454
G1 X77.2 Y77.684 E.02054
G1 X80.189 Y80.672 E.1454
G1 X79.592 Y80.672 E.02054
G1 X76.603 Y77.684 E.1454
G1 X76.006 Y77.684 E.02054
G1 X78.995 Y80.672 E.1454
G1 X78.398 Y80.672 E.02054
G1 X75.409 Y77.684 E.1454
G1 X74.812 Y77.684 E.02054
G1 X77.801 Y80.672 E.1454
G1 X77.203 Y80.672 E.02054
G1 X74.215 Y77.684 E.1454
G1 X73.618 Y77.684 E.02054
G1 X76.606 Y80.672 E.1454
G1 X76.009 Y80.672 E.02054
G1 X73.021 Y77.684 E.1454
G1 X72.424 Y77.684 E.02054
G1 X75.412 Y80.672 E.1454
G1 X74.815 Y80.672 E.02054
G1 X71.827 Y77.684 E.1454
G1 X71.23 Y77.684 E.02054
G1 X74.218 Y80.672 E.1454
G1 X73.621 Y80.672 E.02054
G1 X70.633 Y77.684 E.1454
G1 X70.035 Y77.684 E.02054
G1 X73.024 Y80.672 E.1454
G1 X72.427 Y80.672 E.02054
G1 X69.438 Y77.684 E.1454
G1 X68.841 Y77.684 E.02054
G1 X71.83 Y80.672 E.1454
G1 X71.233 Y80.672 E.02054
G1 X68.244 Y77.684 E.1454
G1 X67.647 Y77.684 E.02054
G1 X70.636 Y80.672 E.1454
G1 X70.039 Y80.672 E.02054
G1 X67.05 Y77.684 E.1454
G1 X66.453 Y77.684 E.02054
G1 X69.442 Y80.672 E.1454
G1 X68.845 Y80.672 E.02054
G1 X65.856 Y77.684 E.1454
G1 X65.259 Y77.684 E.02054
G1 X68.248 Y80.672 E.1454
G1 X67.651 Y80.672 E.02054
G1 X64.662 Y77.684 E.1454
G1 X64.065 Y77.684 E.02054
G1 X67.053 Y80.672 E.1454
G1 X66.456 Y80.672 E.02054
G1 X63.28 Y77.496 E.15453
G1 E-.84 F1800
;WIPE_START
G1 F4800
G1 X63.987 Y78.203 E-.36
;WIPE_END
G1 Z.6 F9000
G1 X62.007 Y71.446 Z.6
G1 Z.2
G1 E1.2 F1800
G1 F4800
G1 X61.799 Y71.238 E.01011
G1 X61.582 Y71.479 E.01115
G1 X61.503 Y71.539 E.00342
G1 X61.818 Y71.855 E.01535
G1 X61.817 Y72.451 E.02051
G1 X61.136 Y71.769 E.03315
G1 X60.825 Y71.88 E.01133
G1 X60.668 Y71.899 E.00545
G1 X61.816 Y73.047 E.05585
G1 X61.815 Y73.643 E.02051
G1 X60.044 Y71.872 E.08617
G1 X59.866 Y71.838 E.00623
G1 X59.549 Y71.702 E.01188
G1 X59.321 Y71.547 E.00948
M73 P1 R62
G1 X59.108 Y71.345 E.0101
G1 X58.94 Y71.124 E.00956
G1 X58.813 Y70.847 E.01046
G1 X58.813 Y71.238 E.01344
G1 X61.814 Y74.239 E.14601
G1 X61.813 Y74.835 E.02051
G1 X58.813 Y71.835 E.14596
G1 X58.813 Y72.432 E.02054
G1 X61.812 Y75.431 E.14591
G1 X61.811 Y76.027 E.02051
G1 X58.813 Y73.029 E.14586
G1 X58.813 Y73.626 E.02054
G1 X61.81 Y76.623 E.14581
G1 X61.825 Y76.88 E.00885
G1 X61.945 Y77.202 E.01183
G1 X62.095 Y77.396 E.00844
G1 X62.286 Y77.545 E.00834
G1 X62.524 Y77.648 E.00892
G1 X62.871 Y77.684 E.012
G1 X65.859 Y80.672 E.1454
G1 X65.262 Y80.672 E.02054
G1 X58.813 Y74.223 E.31377
G1 X58.813 Y74.82 E.02054
G1 X64.665 Y80.672 E.28472
G1 X64.068 Y80.672 E.02054
M73 P1 R61
G1 X58.813 Y75.417 E.25567
G1 X58.813 Y76.014 E.02054
G1 X63.471 Y80.672 E.22662
G1 X62.874 Y80.672 E.02054
G1 X58.813 Y76.611 E.19757
G1 X58.813 Y77.208 E.02054
G1 X62.277 Y80.672 E.16852
G1 X61.68 Y80.672 E.02054
G1 X58.813 Y77.806 E.13947
G1 X58.813 Y78.403 E.02054
G1 X61.083 Y80.672 E.11043
G1 X60.486 Y80.672 E.02054
G1 X58.813 Y79 E.08138
G1 X58.813 Y79.597 E.02054
G1 X59.889 Y80.672 E.05233
G1 X59.292 Y80.672 E.02054
G1 X58.625 Y80.006 E.03241
G1 E-.84 F1800
;WIPE_START
G1 F4800
G1 X59.292 Y80.672 E-.33915
G1 X59.35 Y80.672 E-.02085
;WIPE_END
G1 Z.6 F9000
G1 X89.998 Y65.792 Z.6
G1 Z.2
G1 E1.2 F1800
;WIDTH:0.469904
G1 F4800
G1 X89.39 Y65.184 E.02992
G1 X88.786 Y65.184 E.02101
G1 X89.81 Y66.208 E.0504
G1 X89.81 Y66.812 E.02101
G1 X88.182 Y65.184 E.08011
G1 X87.578 Y65.184 E.02101
G1 X89.81 Y67.415 E.10982
G1 X89.81 Y68.019 E.02101
G1 X86.974 Y65.184 E.13954
G1 X86.813 Y65.184 E.00561
G1 X86.813 Y65.626 E.0154
G1 X89.81 Y68.623 E.14747
G1 X89.81 Y69.227 E.02101
G1 X86.813 Y66.23 E.14748
G1 X86.813 Y66.834 E.021
G1 X88.429 Y68.45 E.07952
G1 X88.169 Y68.435 E.00904
G1 X87.85 Y68.475 E.01119
G1 X86.813 Y67.437 E.05105
G1 X86.812 Y68.041 E.021
G1 X87.407 Y68.636 E.02928
G1 X87.121 Y68.817 E.01179
G1 X87.051 Y68.883 E.00335
G1 X86.625 Y68.457 E.02098
; stop printing object cap1.stl id:0 copy 0
; printing object cap1-2.stl id:0 copy 0
G1 E-.84 F1800
;WIPE_START
G1 F4800
G1 X87.051 Y68.883 E-.2171
G1 X87.121 Y68.817 E-.03468
G1 X87.375 Y68.656 E-.10822
;WIPE_END
G1 Z.6 F9000
G1 X94.608 Y135.151 Z.6
G1 Z.2
G1 E1.2 F1800
;TYPE:Inner wall
;WIDTH:0.502999
G1 X94.613 Y135.216 E.00244
;WIDTH:0.459999
G1 X94.613 Y142.443 E.24561
G1 X91.528 Y145.199 E.14063
G1 X62.908 Y145.199 E.9727
G1 X62.908 Y134.949 E.34837
;WIDTH:0.501417
G1 X62.928 Y134.542 E.01523
;WIDTH:0.542835
G1 X62.949 Y134.135 E.0166
G1 X62.928 Y133.745 E.0159
;WIDTH:0.501417
G1 X62.908 Y133.355 E.01459
;WIDTH:0.459999
G1 X62.908 Y129.624 E.12682
G1 X63.528 Y129.003 E.02985
G1 X66.613 Y129.003 E.10485
G1 X66.624 Y134.139 E.17457
;WIDTH:0.445706
G1 X66.621 Y134.651 E.0168
;WIDTH:0.459999
G1 X66.613 Y140.877 E.21162
G1 X66.623 Y140.986 E.00369
G1 X66.701 Y141.198 E.00769
G1 X66.917 Y141.414 E.01038
G1 X67.239 Y141.503 E.01135
G1 X90.39 Y141.494 E.78683
G1 X90.699 Y141.344 E.01166
G1 X90.882 Y141.054 E.01167
G1 X90.908 Y140.877 E.00605
G1 X90.908 Y129.003 E.40358
G1 X93.992 Y129.003 E.10485
G1 X94.613 Y129.624 E.02985
G1 X94.613 Y130.063 E.01492
G1 X94.613 Y133.553 E.11863
;WIDTH:0.500247
G1 X94.593 Y133.835 E.01054
;WIDTH:0.540495
G1 X94.573 Y134.118 E.01147
;WIDTH:0.545999
G1 X94.57 Y134.662 E.02232
G1 X94.592 Y134.939 E.01139
;WIDTH:0.502999
G1 X94.605 Y135.111 E.00648
G1 E-.84
;WIPE_START
G1 X94.613 Y135.216 E-.03783
G1 X94.613 Y136.111 E-.32217
;WIPE_END
G1 Z.6 F9000
G1 X67.239 Y141.086 Z.6
G1 Z.2
G1 E1.2 F1800
;TYPE:Outer wall
;WIDTH:0.459999
G1 X90.282 Y141.086 E.78315
G1 X90.421 Y141.033 E.00505
G1 X90.49 Y140.877 E.00579
G1 X90.49 Y128.586 E.41775
G1 X94.165 Y128.586 E.12489
G1 X95.03 Y129.451 E.04159
G1 X95.03 Y130.063 E.02079
G1 X95.03 Y142.658 E.42806
G1 X94.975 Y142.679 E.00203
G1 X91.687 Y145.616 E.14984
G1 X62.49 Y145.616 E.99229
G1 X62.49 Y129.451 E.5494
G1 X63.356 Y128.586 E.04159
G1 X67.03 Y128.586 E.12489
G1 X67.03 Y140.877 E.41775
G1 X67.091 Y141.025 E.00541
G1 X67.202 Y141.071 E.00408
G1 E-.84
;WIPE_START
G1 X68.202 Y141.071 E-.36
;WIPE_END
G1 Z.6 F9000
G1 X93.111 Y135.659 Z.6
G1 Z.2
G1 E1.2 F1800
;TYPE:Inner wall
