; HEADER_BLOCK_START
; generated by Creality_Print V5.0.3.8744 on 2024-07-02 at 11:09:07
; total layer number: 120
; filament_density: 1.24
; filament_diameter: 1.75
; max_z_height: 19.24
; HEADER_BLOCK_END

; MINX = 72.09
; MINY = 88.89
; MINZ = -0.00
; MAXX = 161.62
; MAXY = 107.71
; MAXZ = 19.24

; THUMBNAIL_BLOCK_START

;
; THUMBNAIL_BLOCK_END

; THUMBNAIL_BLOCK_START

;
; THUMBNAIL_BLOCK_END

; external perimeters extrusion width = 0.42mm
; perimeters extrusion width = 0.45mm
; infill extrusion width = 0.45mm
; solid infill extrusion width = 0.42mm
; top infill extrusion width = 0.42mm
; first layer extrusion width = 0.46mm

; external perimeters extrusion width = 0.42mm
; perimeters extrusion width = 0.45mm
; infill extrusion width = 0.45mm
; solid infill extrusion width = 0.42mm
; top infill extrusion width = 0.42mm
; first layer extrusion width = 0.46mm

; EXECUTABLE_BLOCK_START
M73 P0 R32
M201 X5000 Y5000 Z500 E5000
M203 X500 Y500 Z30 E100
M204 P5000 R2500 T5000 ; sets acceleration (P, T) and retract acceleration (R), mm/sec^2
M205 X10.00 Y10.00 Z0.40 E5.00 ; sets the jerk limits, mm/sec
;TYPE:Custom
M220 S100 ;Reset Feedrate 
M221 S100 ;Reset Flowrate 
 
M140 S60 ;Set final bed temp 
G28 ;Home 
 
G92 E0 ;Reset Extruder 
G1 Z2.0 F3000 ;Move Z Axis up 
M104 S220 ;Set final nozzle temp 
G1 X-2.1 Y20 Z0.28 F5000.0 ;Move to start position 
M190 S60 ;Wait for bed temp to stabilize 
M109 S220 ;Wait for nozzle temp to stabilize 
G1 X-2.1 Y145.0 Z0.28 F1500.0 E15 ;Draw the first line 
G1 X-2.4 Y145.0 Z0.28 F5000.0 ;Move to side a little 
G1 X-2.4 Y20 Z0.28 F1500.0 E30 ;Draw the second line 
G92 E0  ;Reset Extruder 
G1 E-1.0000 F1800 ;Retract a bit 
G1 Z2.0 F3000 ;Move Z Axis up 
G1 E0.0000 F1800
G90
G21
M83 ; use relative distances for extrusion
; filament start gcode
M106 S0
;LAYER_CHANGE
;Z:0.2
;HEIGHT:0.2
;BEFORE_LAYER_CHANGE
;0.2
G92 E0

G1 E-1.2 F1800
;_SET_FAN_SPEED_CHANGING_LAYER
M204 P500
M205 X8 Y8
; printing object cap2.stl id:0 copy 0
M204 T500
G1 Z.4 F9000
G1 X128.994 Y102.788
G1 Z.4
G1 Z.2
G1 E1.2 F1800
;TYPE:Inner wall
;WIDTH:0.459999
G1 X128.998 Y102.839 E.00173
G1 X129.116 Y103.108 E.01
G1 X129.286 Y103.263 E.00783
G1 X129.614 Y103.356 E.01159
G1 X152.657 Y103.356 E.78315
G1 X152.832 Y103.331 E.00602
G1 X153.11 Y103.162 E.01106
G1 X153.235 Y102.971 E.00774
G1 X153.283 Y102.731 E.00834
G1 X153.283 Y90.856 E.40357
G1 X156.368 Y90.856 E.10485
G1 X156.989 Y91.477 E.02985
G1 X156.989 Y95.407 E.13355
;WIDTH:0.500248
G1 X156.969 Y95.689 E.01054
;WIDTH:0.540496
G1 X156.948 Y95.971 E.01147
;WIDTH:0.545999
G1 X156.946 Y96.515 E.02232
G1 X156.967 Y96.792 E.01139
;WIDTH:0.502999
G1 X156.989 Y97.069 E.01042
;WIDTH:0.459999
G1 X156.989 Y104.713 E.25978
G1 X157.038 Y105.023 E.01066
G1 X157.243 Y105.284 E.01129
G1 X159.519 Y106.962 E.0961
G1 X128.011 Y106.962 E1.07084
G1 X125.254 Y104.516 E.12527
G1 X125.238 Y104.164 E.01196
G1 X125.283 Y103.815 E.01195
M73 P0 R31
G1 X125.283 Y96.8 E.23842
;WIDTH:0.501532
G1 X125.304 Y96.392 E.01526
;WIDTH:0.543065
G1 X125.324 Y95.985 E.01664
G1 X125.304 Y95.597 E.01584
;WIDTH:0.501532
G1 X125.283 Y95.208 E.01452
;WIDTH:0.459999
G1 X125.283 Y91.477 E.12682
G1 X125.904 Y90.856 E.02985
G1 X128.989 Y90.856 E.10485
G1 X128.999 Y95.992 E.17457
;WIDTH:0.445706
G1 X128.996 Y96.504 E.0168
;WIDTH:0.459999
G1 X128.989 Y102.731 E.21161
G1 X128.99 Y102.748 E.0006
G1 X129.406 Y102.731 F9000
;TYPE:Outer wall
G1 F1800
G1 X129.476 Y102.887 E.00581
G1 X129.614 Y102.939 E.00503
G1 X152.657 Y102.939 E.78315
G1 X152.808 Y102.874 E.00559
G1 X152.866 Y102.731 E.00526
G1 X152.866 Y90.439 E.41775
G1 X156.541 Y90.439 E.12489
G1 X157.406 Y91.304 E.04159
G1 X157.406 Y104.78 E.458
G1 X157.491 Y104.948 E.00639
G1 X160.787 Y107.379 E.1392
G1 X127.853 Y107.379 E1.11933
G1 X124.897 Y104.757 E.1343
M73 P1 R31
G1 X124.822 Y104.596 E.00602
G1 X124.821 Y103.897 E.02375
G1 X124.866 Y103.815 E.00318
G1 X124.866 Y91.304 E.42521
G1 X125.731 Y90.439 E.04159
G1 X129.406 Y90.439 E.12489
G1 X129.406 Y102.691 E.41639
G1 E-.84
;WIPE_START
G1 X129.476 Y102.887 E-.07494
G1 X129.614 Y102.939 E-.05329
G1 X130.258 Y102.939 E-.23177
;WIPE_END
G1 Z.6 F9000
G1 X154.043 Y97.161 Z.6
G1 Z.2
G1 E1.2 F1800
;TYPE:Inner wall
G1 X153.856 Y96.949 E.00959
G1 X153.747 Y96.721 E.00859
G1 X153.654 Y96.209 E.01769
;WIDTH:0.44134
G1 X153.666 Y96.061 E.00483
;WIDTH:0.458843
G1 X153.747 Y95.697 E.01263
;WIDTH:0.459999
G1 X153.856 Y95.469 E.00859
G1 X154.154 Y95.131 E.01532
G1 X154.544 Y94.906 E.01532
G1 X154.986 Y94.817 E.01532
G1 X155.433 Y94.874 E.0153
G1 X155.839 Y95.071 E.01532
G1 X156.16 Y95.387 E.01532
;WIDTH:0.489948
G1 X156.378 Y95.786 E.01656
;WIDTH:0.529804
G1 X156.467 Y96.167 E.01554
;WIDTH:0.550253
G1 X156.44 Y96.531 E.01509
G1 X156.284 Y96.802 E.0129
;WIDTH:0.505126
G1 X156.129 Y97.072 E.01175
;WIDTH:0.459999
G1 X155.796 Y97.376 E.01532
G1 X155.383 Y97.558 E.01532
G1 X155.062 Y97.606 E.01105
G1 X154.578 Y97.521 E.0167
G1 X154.154 Y97.287 E.01645
G1 X154.069 Y97.191 E.00436
G1 X154.343 Y96.898 F9000
;TYPE:Outer wall
G1 F1800
G1 X154.339 Y96.896 E.00016
G1 X154.152 Y96.621 E.01131
G1 X154.062 Y96.159 E.01599
G1 X154.188 Y95.721 E.01547
G1 X154.388 Y95.476 E.01076
G1 X154.656 Y95.308 E.01076
G1 X155.013 Y95.236 E.01237
G1 X155.279 Y95.262 E.00908
G1 X155.569 Y95.389 E.01076
G1 X155.803 Y95.602 E.01076
G1 X155.956 Y95.879 E.01076
G1 X156.014 Y96.19 E.01076
G1 X155.969 Y96.503 E.01076
G1 X155.826 Y96.786 E.01076
G1 X155.601 Y97.008 E.01076
G1 X155.316 Y97.146 E.01076
G1 X154.992 Y97.184 E.01107
G1 X154.595 Y97.082 E.01396
G1 X154.375 Y96.922 E.00924
G1 E-.84
;WIPE_START
G1 X154.339 Y96.896 E-.01605
G1 X154.152 Y96.621 E-.11976
G1 X154.062 Y96.159 E-.1694
G1 X154.104 Y96.013 E-.0548
;WIPE_END
G1 Z.6 F9000
G1 X126.283 Y95.211 Z.6
G1 Z.2
G1 E1.2 F1800
;TYPE:Inner wall
G1 X126.354 Y95.131 E.00362
G1 X126.744 Y94.906 E.01532
G1 X127.186 Y94.817 E.01532
G1 X127.633 Y94.874 E.01532
G1 X128.039 Y95.071 E.01532
G1 X128.36 Y95.387 E.01532
G1 X128.56 Y95.79 E.01528
;WIDTH:0.452302
G1 X128.615 Y96.233 E.01491
;WIDTH:0.455274
G1 X128.545 Y96.677 E.01509
;WIDTH:0.459999
G1 X128.329 Y97.072 E.01531
G1 X127.996 Y97.376 E.01532
G1 X127.583 Y97.558 E.01532
G1 X127.211 Y97.606 E.01275
G1 X126.778 Y97.521 E.01501
G1 X126.354 Y97.287 E.01645
G1 X126.056 Y96.949 E.01532
;WIDTH:0.492246
G1 X125.941 Y96.656 E.01152
;WIDTH:0.524492
G1 X125.826 Y96.364 E.01235
;WIDTH:0.543065
G1 X125.817 Y96.045 E.01298
G1 X125.936 Y95.757 E.01271
;WIDTH:0.501532
G1 X126.056 Y95.469 E.01165
;WIDTH:0.459999
G1 X126.257 Y95.241 E.01033
G1 X126.586 Y95.478 F9000
;TYPE:Outer wall
G1 F1800
G1 X126.588 Y95.476 E.0001
G1 X126.856 Y95.308 E.01076
G1 X127.164 Y95.234 E.01076
G1 X127.479 Y95.262 E.01076
G1 X127.769 Y95.389 E.01076
G1 X128.003 Y95.602 E.01076
G1 X128.156 Y95.879 E.01076
G1 X128.214 Y96.19 E.01076
G1 X128.169 Y96.503 E.01076
G1 X128.026 Y96.786 E.01076
G1 X127.801 Y97.008 E.01076
G1 X127.516 Y97.146 E.01076
G1 X127.228 Y97.189 E.00988
G1 X126.795 Y97.082 E.01518
G1 X126.539 Y96.896 E.01076
G1 X126.351 Y96.62 E.01132
G1 X126.262 Y96.156 E.01607
G1 X126.388 Y95.721 E.01538
G1 X126.561 Y95.509 E.0093
G1 E-.84
;WIPE_START
G1 X126.588 Y95.476 E-.01542
G1 X126.856 Y95.308 E-.11394
G1 X127.164 Y95.234 E-.11393
G1 X127.479 Y95.262 E-.11393
G1 X127.486 Y95.265 E-.00278
;WIPE_END
G1 Z.6 F9000
G1 X127.923 Y91.023
G1 Z.6
G1 Z.2
G1 E1.2 F1800
;TYPE:Bottom surface
;WIDTH:0.486064
G1 F4800
G1 X128.634 Y91.734 E.0363
G1 X128.634 Y92.36 E.02263
G1 X127.484 Y91.211 E.05872
G1 X126.858 Y91.211 E.02263
G1 X128.634 Y92.987 E.09072
G1 X128.634 Y93.614 E.02263
G1 X126.231 Y91.211 E.12272
G1 X126.051 Y91.211 E.00651
G1 X125.828 Y91.434 E.0114
G1 X128.634 Y94.24 E.14333
G1 X128.634 Y94.867 E.02263
G1 X125.638 Y91.871 E.15302
G1 X125.639 Y92.498 E.02266
G1 X127.66 Y94.52 E.10324
G1 X127.466 Y94.477 E.00717
G1 X127.14 Y94.461 E.01179
G1 X126.995 Y94.481 E.00529
G1 X125.64 Y93.126 E.06923
G1 X125.64 Y93.754 E.02266
G1 X126.512 Y94.626 E.04453
G1 X126.372 Y94.691 E.00561
G1 X126.124 Y94.864 E.0109
G1 X125.641 Y94.381 E.02466
G1 X125.642 Y95.009 E.02266
G1 X125.957 Y95.323 E.01607
G1 E-.84 F1800
;WIPE_START
G1 F4800
G1 X125.642 Y95.009 E-.16025
G1 X125.641 Y94.454 E-.19975
;WIPE_END
G1 Z.6 F9000
G1 X156.389 Y96.968 Z.6
G1 Z.2
G1 E1.2 F1800
;WIDTH:0.464691
G1 F4800
G1 X156.634 Y97.214 E.01192
G1 X156.634 Y97.81 E.0205
G1 X156.266 Y97.442 E.01787
G1 X156.206 Y97.506 E.00301
G1 X155.933 Y97.705 E.01163
G1 X156.634 Y98.407 E.0341
G1 X156.634 Y99.003 E.0205
G1 X155.516 Y97.884 E.05437
G1 X155.074 Y97.961 E.01539
G1 X154.988 Y97.953 E.00298
G1 X156.634 Y99.6 E.08001
G1 X156.634 Y100.196 E.0205
G1 X154.153 Y97.715 E.12061
G1 X153.945 Y97.574 E.00862
G1 X153.732 Y97.372 E.01009
G1 X153.637 Y97.247 E.00537
G1 X153.637 Y97.796 E.01884
G1 X156.634 Y100.793 E.14566
G1 X156.634 Y101.389 E.0205
G1 X153.637 Y98.392 E.14566
G1 X153.637 Y98.989 E.0205
G1 X156.634 Y101.985 E.14566
G1 X156.634 Y102.582 E.0205
G1 X153.637 Y99.585 E.14566
G1 X153.637 Y100.182 E.0205
G1 X156.634 Y103.178 E.14566
G1 X156.634 Y103.775 E.0205
G1 X153.637 Y100.778 E.14566
G1 X153.637 Y101.375 E.0205
G1 X156.822 Y104.559 E.15478
G1 E-.84 F1800
;WIPE_START
G1 F4800
G1 X156.115 Y103.852 E-.36
;WIPE_END
G1 Z.6 F9000
G1 X158.462 Y106.795 Z.6
G1 Z.2
G1 E1.2 F1800
G1 F4800
G1 X153.637 Y101.971 E.23448
G1 X153.637 Y102.567 E.0205
G1 X157.677 Y106.608 E.19636
G1 X157.081 Y106.608 E.0205
G1 X153.567 Y103.094 E.17079
G1 X153.371 Y103.404 E.01263
G1 X153.322 Y103.445 E.00219
G1 X156.484 Y106.608 E.15372
G1 X155.888 Y106.608 E.0205
G1 X152.947 Y103.666 E.14296
G1 X152.668 Y103.711 E.00971
G1 X152.395 Y103.711 E.00938
G1 X155.291 Y106.608 E.1408
G1 X154.695 Y106.608 E.0205
G1 X151.798 Y103.711 E.1408
G1 X151.202 Y103.711 E.0205
G1 X154.099 Y106.608 E.1408
G1 X153.502 Y106.608 E.0205
G1 X150.605 Y103.711 E.1408
G1 X150.009 Y103.711 E.0205
G1 X152.906 Y106.608 E.1408
G1 X152.309 Y106.608 E.0205
G1 X149.412 Y103.711 E.1408
G1 X148.816 Y103.711 E.0205
G1 X151.713 Y106.608 E.1408
G1 X151.116 Y106.608 E.0205
G1 X148.219 Y103.711 E.1408
G1 X147.623 Y103.711 E.0205
G1 X150.52 Y106.608 E.1408
G1 X149.923 Y106.608 E.0205
G1 X147.026 Y103.711 E.1408
G1 X146.43 Y103.711 E.0205
G1 X149.327 Y106.608 E.1408
G1 X148.73 Y106.608 E.0205
G1 X145.833 Y103.711 E.1408
G1 X145.237 Y103.711 E.0205
G1 X148.134 Y106.608 E.1408
G1 X147.537 Y106.608 E.0205
G1 X144.64 Y103.711 E.1408
G1 X144.044 Y103.711 E.0205
G1 X146.941 Y106.608 E.1408
G1 X146.344 Y106.608 E.0205
G1 X143.448 Y103.711 E.1408
G1 X142.851 Y103.711 E.0205
G1 X145.748 Y106.608 E.1408
G1 X145.151 Y106.608 E.0205
G1 X142.255 Y103.711 E.1408
G1 X141.658 Y103.711 E.0205
G1 X144.555 Y106.608 E.1408
G1 X143.958 Y106.608 E.0205
G1 X141.062 Y103.711 E.1408
G1 X140.465 Y103.711 E.0205
G1 X143.362 Y106.608 E.1408
G1 X142.766 Y106.608 E.0205
G1 X139.869 Y103.711 E.1408
G1 X139.272 Y103.711 E.0205
G1 X142.169 Y106.608 E.1408
G1 X141.573 Y106.608 E.0205
G1 X138.676 Y103.711 E.1408
G1 X138.079 Y103.711 E.0205
G1 X140.976 Y106.608 E.1408
G1 X140.38 Y106.608 E.0205
G1 X137.483 Y103.711 E.1408
G1 X136.886 Y103.711 E.0205
G1 X139.783 Y106.608 E.1408
G1 X139.187 Y106.608 E.0205
G1 X136.29 Y103.711 E.1408
G1 X135.693 Y103.711 E.0205
G1 X138.59 Y106.608 E.1408
G1 X137.994 Y106.608 E.0205
G1 X135.097 Y103.711 E.1408
G1 X134.5 Y103.711 E.0205
G1 X137.397 Y106.608 E.1408
G1 X136.801 Y106.608 E.0205
G1 X133.904 Y103.711 E.1408
G1 X133.307 Y103.711 E.0205
G1 X136.204 Y106.608 E.1408
G1 X135.608 Y106.608 E.0205
G1 X132.711 Y103.711 E.1408
G1 X132.114 Y103.711 E.0205
G1 X135.011 Y106.608 E.1408
G1 X134.415 Y106.608 E.0205
G1 X131.518 Y103.711 E.1408
G1 X130.922 Y103.711 E.0205
G1 X133.818 Y106.608 E.1408
G1 X133.222 Y106.608 E.0205
G1 X130.137 Y103.523 E.14992
G1 E-.84 F1800
;WIPE_START
G1 F4800
G1 X130.844 Y104.23 E-.36
;WIPE_END
G1 Z.6 F9000
G1 X128.831 Y97.445 Z.6
G1 Z.2
G1 E1.2 F1800
G1 F4800
G1 X128.634 Y97.248 E.00955
G1 X128.406 Y97.506 E.01184
G1 X128.344 Y97.554 E.00271
G1 X128.642 Y97.853 E.01453
G1 X128.641 Y98.448 E.02047
G1 X127.979 Y97.786 E.03218
G1 X127.65 Y97.907 E.01207
G1 X127.519 Y97.923 E.00451
G1 X128.64 Y99.044 E.05449
G1 X128.639 Y99.639 E.02047
G1 X126.906 Y97.906 E.08424
G1 X126.69 Y97.865 E.00755
G1 X126.373 Y97.729 E.01187
G1 X126.145 Y97.574 E.00947
G1 X125.932 Y97.372 E.01009
G1 X125.764 Y97.151 E.00955
G1 X125.637 Y96.873 E.01048
G1 X125.637 Y97.234 E.01238
G1 X128.638 Y100.235 E.14587
G1 X128.637 Y100.83 E.02047
G1 X125.637 Y97.83 E.14582
G1 X125.637 Y98.426 E.0205
G1 X128.636 Y101.426 E.14577
G1 X128.635 Y102.021 E.02047
M73 P2 R31
G1 X125.637 Y99.023 E.14572
G1 X125.637 Y99.619 E.0205
G1 X128.634 Y102.616 E.14567
G1 X128.648 Y102.901 E.00979
G1 X128.702 Y103.092 E.0068
G1 X128.831 Y103.321 E.00903
G1 X128.963 Y103.464 E.00669
G1 X129.101 Y103.566 E.0059
G1 X129.273 Y103.651 E.0066
G1 X129.601 Y103.711 E.01146
G1 X129.729 Y103.711 E.00438
G1 X132.625 Y106.608 E.1408
G1 X132.029 Y106.608 E.0205
G1 X125.637 Y100.216 E.31067
G1 X125.637 Y100.812 E.0205
G1 X131.433 Y106.608 E.28167
G1 X130.836 Y106.608 E.0205
G1 X125.637 Y101.409 E.25268
G1 X125.637 Y102.005 E.0205
G1 X130.24 Y106.608 E.22369
G1 X129.643 Y106.608 E.0205
G1 X125.637 Y102.602 E.1947
G1 X125.637 Y103.198 E.0205
G1 X129.047 Y106.608 E.16571
G1 X128.45 Y106.608 E.0205
G1 X125.45 Y103.607 E.14584
G1 E-.84 F1800
;WIPE_START
G1 F4800
G1 X126.157 Y104.314 E-.36
;WIPE_END
G1 Z.6 F9000
G1 X156.822 Y91.819 Z.6
G1 Z.2
G1 E1.2 F1800
;WIDTH:0.4699
G1 F4800
G1 X156.214 Y91.211 E.02992
G1 X155.61 Y91.211 E.02101
G1 X156.634 Y92.235 E.0504
G1 X156.634 Y92.839 E.02101
G1 X155.006 Y91.211 E.08011
G1 X154.402 Y91.211 E.02101
G1 X156.634 Y93.443 E.10982
G1 X156.634 Y94.046 E.02101
G1 X153.798 Y91.211 E.13953
G1 X153.637 Y91.211 E.00561
G1 X153.637 Y91.653 E.0154
G1 X156.634 Y94.65 E.14747
G1 X156.634 Y95.254 E.02101
G1 X153.637 Y92.257 E.14748
G1 X153.637 Y92.861 E.021
G1 X155.253 Y94.476 E.07951
G1 X154.994 Y94.462 E.00903
G1 X154.674 Y94.502 E.0112
G1 X153.637 Y93.464 E.05105
G1 X153.637 Y94.068 E.021
G1 X154.232 Y94.663 E.02928
G1 X153.945 Y94.844 E.01179
G1 X153.875 Y94.91 E.00335
G1 X153.449 Y94.484 E.02098
; stop printing object cap2.stl id:0 copy 0
; printing object cap2-1.stl id:1681052904512 copy 0
G1 E-.84 F1800
;WIPE_START
G1 F4800
G1 X153.875 Y94.91 E-.2171
G1 X153.945 Y94.844 E-.03468
G1 X154.199 Y94.683 E-.10822
;WIPE_END
G1 Z.6 F9000
G1 X76.493 Y101.465 Z.6
G1 Z.2
G1 E1.2 F1800
;TYPE:Inner wall
;WIDTH:0.459999
G1 X76.498 Y101.516 E.00173
G1 X76.615 Y101.786 E.01
G1 X76.786 Y101.941 E.00783
G1 X77.114 Y102.034 E.01159
G1 X100.157 Y102.034 E.78315
G1 X100.332 Y102.009 E.00602
G1 X100.61 Y101.839 E.01106
G1 X100.734 Y101.649 E.00774
G1 X100.783 Y101.408 E.00834
G1 X100.783 Y89.534 E.40357
G1 X103.867 Y89.534 E.10485
G1 X104.488 Y90.155 E.02985
G1 X104.488 Y94.084 E.13355
;WIDTH:0.500248
G1 X104.468 Y94.366 E.01054
;WIDTH:0.540496
G1 X104.448 Y94.648 E.01147
;WIDTH:0.546
G1 X104.445 Y95.192 E.02232
G1 X104.467 Y95.47 E.01139
;WIDTH:0.503
G1 X104.488 Y95.747 E.01042
;WIDTH:0.459999
G1 X104.488 Y103.39 E.25978
G1 X104.537 Y103.7 E.01067
G1 X104.743 Y103.961 E.01129
G1 X107.018 Y105.639 E.0961
G1 X75.511 Y105.639 E1.07084
G1 X72.754 Y103.193 E.12527
G1 X72.738 Y102.842 E.01196
G1 X72.783 Y102.493 E.01195
G1 X72.783 Y95.481 E.23831
;WIDTH:0.501349
G1 X72.803 Y95.076 E.01516
;WIDTH:0.542699
G1 X72.824 Y94.67 E.01653
G1 X72.803 Y94.278 E.01599
;WIDTH:0.501349
G1 X72.783 Y93.886 E.01467
;WIDTH:0.459999
G1 X72.783 Y90.155 E.12682
G1 X73.403 Y89.534 E.02985
G1 X76.488 Y89.534 E.10485
G1 X76.499 Y94.67 E.17457
;WIDTH:0.445706
G1 X76.496 Y95.182 E.0168
;WIDTH:0.459999
G1 X76.488 Y101.408 E.21161
G1 X76.49 Y101.426 E.0006
G1 X76.905 Y101.408 F9000
;TYPE:Outer wall
G1 F1800
G1 X76.976 Y101.564 E.00581
G1 X77.114 Y101.617 E.00503
G1 X100.157 Y101.617 E.78315
G1 X100.308 Y101.552 E.00559
G1 X100.365 Y101.408 E.00526
G1 X100.365 Y89.117 E.41775
G1 X104.04 Y89.117 E.12489
G1 X104.905 Y89.982 E.04159
G1 X104.905 Y103.458 E.458
G1 X104.99 Y103.626 E.00639
G1 X108.287 Y106.057 E.1392
G1 X75.352 Y106.057 E1.11933
G1 X72.397 Y103.434 E.13429
G1 X72.322 Y103.274 E.00602
