; HEADER_BLOCK_START
; generated by Creality_Print V5.0.3.8744 on 2024-07-02 at 11:10:59
; total layer number: 69
; filament_density: 1.24
; filament_diameter: 1.75
; max_z_height: 11.08
; HEADER_BLOCK_END

; MINX = 89.27
; MINY = 62.77
; MINZ = 0.00
; MAXX = 189.37
; MAXY = 150.26
; MAXZ = 11.00

; THUMBNAIL_BLOCK_START

;
; THUMBNAIL_BLOCK_END

; THUMBNAIL_BLOCK_START

;
; THUMBNAIL_BLOCK_END

; external perimeters extrusion width = 0.42mm
; perimeters extrusion width = 0.45mm
; infill extrusion width = 0.45mm
; solid infill extrusion width = 0.42mm
; top infill extrusion width = 0.42mm
; first layer extrusion width = 0.46mm

; external perimeters extrusion width = 0.42mm
; perimeters extrusion width = 0.45mm
; infill extrusion width = 0.45mm
; solid infill extrusion width = 0.42mm
; top infill extrusion width = 0.42mm
; first layer extrusion width = 0.46mm

; external perimeters extrusion width = 0.42mm
; perimeters extrusion width = 0.45mm
; infill extrusion width = 0.45mm
; solid infill extrusion width = 0.42mm
; top infill extrusion width = 0.42mm
; first layer extrusion width = 0.46mm

; external perimeters extrusion width = 0.42mm
; perimeters extrusion width = 0.45mm
; infill extrusion width = 0.45mm
; solid infill extrusion width = 0.42mm
; top infill extrusion width = 0.42mm
; first layer extrusion width = 0.46mm

; EXECUTABLE_BLOCK_START
M73 P0 R45
M201 X5000 Y5000 Z500 E5000
M203 X500 Y500 Z30 E100
M204 P5000 R2500 T5000 ; sets acceleration (P, T) and retract acceleration (R), mm/sec^2
M205 X10.00 Y10.00 Z0.40 E5.00 ; sets the jerk limits, mm/sec
;TYPE:Custom
M220 S100 ;Reset Feedrate 
M221 S100 ;Reset Flowrate 
 
M140 S60 ;Set final bed temp 
G28 ;Home 
 
G92 E0 ;Reset Extruder 
G1 Z2.0 F3000 ;Move Z Axis up 
M104 S220 ;Set final nozzle temp 
G1 X-2.1 Y20 Z0.28 F5000.0 ;Move to start position 
M190 S60 ;Wait for bed temp to stabilize 
M109 S220 ;Wait for nozzle temp to stabilize 
G1 X-2.1 Y145.0 Z0.28 F1500.0 E15 ;Draw the first line 
G1 X-2.4 Y145.0 Z0.28 F5000.0 ;Move to side a little 
G1 X-2.4 Y20 Z0.28 F1500.0 E30 ;Draw the second line 
G92 E0  ;Reset Extruder 
G1 E-1.0000 F1800 ;Retract a bit 
G1 Z2.0 F3000 ;Move Z Axis up 
G1 E0.0000 F1800
G90
G21
M83 ; use relative distances for extrusion
; filament start gcode
M106 S0
;LAYER_CHANGE
;Z:0.2
;HEIGHT:0.2
;BEFORE_LAYER_CHANGE
;0.2
G92 E0

G1 E-1.2 F1800
;_SET_FAN_SPEED_CHANGING_LAYER
M204 P500
M205 X8 Y8
; printing object Head-3.stl id:1681052904512 copy 0
M204 T500
G1 Z.4 F9000
G1 X103.742 Y72.408
G1 Z.4
G1 Z.2
G1 E1.2 F1800
;TYPE:Outer wall
;WIDTH:0.459999
G1 X104.265 Y72.591 E.01884
G1 X104.839 Y72.864 E.02159
G1 X105.379 Y73.197 E.02159
G1 X105.881 Y73.587 E.02159
G1 X106.337 Y74.029 E.02159
G1 X106.743 Y74.518 E.02159
G1 X107.093 Y75.047 E.02159
G1 X107.385 Y75.612 E.02159
G1 X107.613 Y76.204 E.02159
G1 X107.782 Y76.852 E.02275
G1 X107.87 Y77.409 E.01916
G1 X107.902 Y78.043 E.02158
G1 X107.858 Y78.714 E.02287
G1 X107.749 Y79.34 E.02159
G1 X107.572 Y79.95 E.02159
G1 X107.33 Y80.538 E.02159
G1 X107.027 Y81.095 E.02159
G1 X106.664 Y81.617 E.02159
G1 X106.223 Y82.12 E.02275
G1 X105.812 Y82.506 E.01916
G1 X105.331 Y82.868 E.02045
G1 X104.724 Y83.229 E.02398
G1 X104.145 Y83.489 E.02159
G1 X103.541 Y83.685 E.02159
G1 X102.919 Y83.815 E.02159
G1 X102.287 Y83.877 E.02159
G1 X101.652 Y83.87 E.02159
G1 X100.988 Y83.787 E.02275
G1 X100.438 Y83.662 E.01916
G1 X99.837 Y83.457 E.02158
G1 X99.229 Y83.168 E.02287
G1 X98.689 Y82.835 E.02159
G1 X98.187 Y82.445 E.02159
G1 X97.731 Y82.003 E.02159
G1 X97.325 Y81.514 E.02159
G1 X96.974 Y80.985 E.02159
G1 X96.683 Y80.42 E.02159
G1 X96.455 Y79.828 E.02159
G1 X96.286 Y79.18 E.02275
G1 X96.198 Y78.623 E.01916
G1 X96.166 Y77.989 E.02158
G1 X96.21 Y77.318 E.02287
G1 X96.319 Y76.692 E.02159
G1 X96.496 Y76.082 E.02159
G1 X96.738 Y75.494 E.02159
G1 X97.041 Y74.936 E.02159
G1 X97.403 Y74.415 E.02159
G1 X97.82 Y73.935 E.02159
G1 X98.286 Y73.503 E.02159
G1 X98.796 Y73.125 E.02159
G1 X99.344 Y72.803 E.02159
G1 X99.923 Y72.543 E.02159
G1 X100.527 Y72.347 E.02159
G1 X101.149 Y72.217 E.02159
G1 X101.781 Y72.155 E.02159
G1 X102.416 Y72.162 E.02159
G1 X103.044 Y72.24 E.02149
G1 X103.666 Y72.381 E.02167
G1 X103.704 Y72.395 E.00139
G1 E-.84
;WIPE_START
G1 X104.265 Y72.591 E-.21396
G1 X104.631 Y72.765 E-.14604
;WIPE_END
G1 Z.6 F9000
G1 X106.133 Y80.653 Z.6
G1 Z.2
G1 E1.2 F1800
G1 X105.926 Y80.96 E.0126
G1 X105.585 Y81.364 E.01796
G1 X104.81 Y82.023 E.03457
G1 X104.331 Y82.322 E.01919
G1 X103.851 Y82.545 E.018
G1 X103.35 Y82.715 E.01796
G1 X102.835 Y82.83 E.01796
G1 X102.309 Y82.888 E.01796
G1 X101.781 Y82.89 E.01796
G1 X101.256 Y82.834 E.01796
G1 X100.248 Y82.55 E.03559
G1 X99.758 Y82.333 E.01819
G1 X99.305 Y82.062 E.01797
G1 X98.883 Y81.743 E.01796
G1 X98.499 Y81.38 E.01796
G1 X98.156 Y80.978 E.01796
G1 X97.858 Y80.542 E.01796
G1 X97.61 Y80.075 E.01796
G1 X97.413 Y79.585 E.01796
G1 X97.27 Y79.076 E.01796
G1 X97.161 Y78.035 E.03559
G1 X97.181 Y77.5 E.01819
G1 X97.265 Y76.978 E.01796
G1 X97.406 Y76.468 E.01796
G1 X97.6 Y75.977 E.01796
G1 X97.847 Y75.51 E.01796
G1 X98.142 Y75.072 E.01796
G1 X98.483 Y74.668 E.01796
G1 X98.866 Y74.304 E.01796
G1 X99.286 Y73.983 E.01796
G1 X99.738 Y73.71 E.01796
G1 X100.217 Y73.487 E.01796
G1 X100.717 Y73.317 E.01796
G1 X101.233 Y73.202 E.01796
G1 X101.758 Y73.144 E.01796
G1 X102.287 Y73.142 E.01796
G1 X102.812 Y73.198 E.01796
G1 X103.329 Y73.311 E.01796
G1 X103.83 Y73.478 E.01796
G1 X104.31 Y73.699 E.01796
G1 X104.763 Y73.97 E.01796
G1 X105.185 Y74.289 E.01796
G1 X105.569 Y74.652 E.01796
G1 X105.912 Y75.054 E.01796
G1 X106.21 Y75.49 E.01796
G1 X106.458 Y75.957 E.01796
G1 X106.655 Y76.447 E.01796
G1 X106.798 Y76.956 E.01796
G1 X106.907 Y77.997 E.03559
G1 X106.887 Y78.532 E.01819
G1 X106.802 Y79.054 E.01797
G1 X106.662 Y79.563 E.01796
G1 X106.468 Y80.055 E.01796
G1 X106.221 Y80.522 E.01796
G1 X106.156 Y80.62 E.004
G1 E-.84
;WIPE_START
G1 X105.926 Y80.96 E-.14788
G1 X105.585 Y81.364 E-.19023
G1 X105.538 Y81.403 E-.02189
;WIPE_END
G1 Z.6 F9000
G1 X103.581 Y72.874 Z.6
G1 Z.2
G1 E1.2 F1800
;TYPE:Inner wall
;WIDTH:0.612834
G1 X104.058 Y73.039 E.02341
G1 X104.584 Y73.287 E.02702
G1 X105.081 Y73.59 E.02702
G1 X105.541 Y73.945 E.02702
G1 X105.961 Y74.349 E.02702
G1 X106.334 Y74.795 E.02702
G1 X106.657 Y75.278 E.02702
G1 X106.926 Y75.794 E.02702
G1 X107.138 Y76.336 E.02702
;WIDTH:0.613664
G1 X107.295 Y76.932 E.02864
;WIDTH:0.638482
G1 X107.365 Y77.436 E.02471
G1 X107.404 Y78.016 E.0282
;WIDTH:0.621766
G1 X107.371 Y78.634 E.02922
;WIDTH:0.612832
G1 X107.273 Y79.208 E.02703
G1 X107.113 Y79.768 E.02702
G1 X106.894 Y80.306 E.02702
G1 X106.618 Y80.819 E.02702
G1 X106.288 Y81.298 E.02702
;WIDTH:0.613662
G1 X105.883 Y81.762 E.02864
;WIDTH:0.638484
G1 X105.505 Y82.103 E.02471
G1 X105.073 Y82.444 E.02673
;WIDTH:0.618976
G1 X104.517 Y82.781 E.0305
;WIDTH:0.61283
G1 X103.987 Y83.021 E.02703
G1 X103.435 Y83.203 E.02702
G1 X102.866 Y83.324 E.02702
G1 X102.287 Y83.383 E.02702
G1 X101.705 Y83.379 E.02702
;WIDTH:0.613664
G1 X101.094 Y83.304 E.02864
;WIDTH:0.638486
G1 X100.599 Y83.183 E.02471
G1 X100.046 Y83.005 E.0282
;WIDTH:0.621768
G1 X99.484 Y82.745 E.02922
;WIDTH:0.612832
G1 X98.987 Y82.442 E.02703
G1 X98.527 Y82.086 E.02702
G1 X98.107 Y81.683 E.02702
G1 X97.734 Y81.237 E.02702
G1 X97.411 Y80.753 E.02702
G1 X97.142 Y80.237 E.02702
G1 X96.93 Y79.696 E.02702
;WIDTH:0.613662
G1 X96.773 Y79.1 E.02864
;WIDTH:0.638482
G1 X96.703 Y78.596 E.02471
G1 X96.663 Y78.016 E.0282
;WIDTH:0.621764
G1 X96.697 Y77.397 E.02922
;WIDTH:0.612834
G1 X96.795 Y76.824 E.02703
G1 X96.954 Y76.264 E.02702
G1 X97.174 Y75.725 E.02702
G1 X97.45 Y75.213 E.02702
G1 X97.78 Y74.734 E.02702
G1 X98.159 Y74.293 E.02702
G1 X98.585 Y73.896 E.02702
G1 X99.05 Y73.547 E.02702
G1 X99.551 Y73.251 E.02702
G1 X100.081 Y73.011 E.02702
G1 X100.633 Y72.829 E.02702
G1 X101.202 Y72.708 E.02702
G1 X101.781 Y72.649 E.02702
G1 X102.363 Y72.653 E.02702
G1 X102.94 Y72.721 E.02701
G1 X103.508 Y72.849 E.02702
G1 X103.544 Y72.861 E.00175
; stop printing object Head-3.stl id:1681052904512 copy 0
; printing object Head.stl id:0 copy 0
G1 E-.84
;WIPE_START
G1 X104.058 Y73.039 E-.19589
G1 X104.47 Y73.233 E-.16411
;WIPE_END
G1 Z.6 F9000
G1 X103.078 Y129.704 Z.6
G1 Z.2
G1 E1.2 F1800
;TYPE:Outer wall
;WIDTH:0.459999
G1 X103.565 Y129.871 E.01749
G1 X104.172 Y130.16 E.02287
G1 X104.713 Y130.493 E.02159
G1 X105.215 Y130.883 E.02159
G1 X105.671 Y131.325 E.02159
G1 X106.077 Y131.814 E.02159
G1 X106.427 Y132.343 E.02159
G1 X106.719 Y132.908 E.02159
G1 X106.947 Y133.501 E.02159
G1 X107.111 Y134.114 E.02159
G1 X107.204 Y134.704 E.0203
G1 X107.231 Y135.374 E.02279
G1 X107.192 Y136.011 E.02167
G1 X107.083 Y136.637 E.02159
G1 X106.906 Y137.247 E.02159
G1 X106.648 Y137.864 E.02275
G1 X106.382 Y138.361 E.01916
G1 X106.023 Y138.885 E.02158
G1 X105.557 Y139.417 E.02403
G1 X105.146 Y139.803 E.01917
G1 X104.665 Y140.165 E.02045
G1 X104.058 Y140.525 E.02399
G1 X103.479 Y140.786 E.0216
G1 X102.875 Y140.982 E.02159
G1 X102.253 Y141.112 E.02159
G1 X101.621 Y141.173 E.02159
G1 X100.985 Y141.166 E.02159
G1 X100.355 Y141.091 E.02159
G1 X99.736 Y140.947 E.02159
G1 X99.136 Y140.738 E.02159
G1 X98.563 Y140.465 E.02159
G1 X98.022 Y140.131 E.02159
G1 X97.521 Y139.741 E.02159
G1 X97.064 Y139.299 E.02159
G1 X96.658 Y138.811 E.02159
G1 X96.308 Y138.281 E.02159
G1 X96.016 Y137.717 E.02159
G1 X95.788 Y137.124 E.02159
G1 X95.619 Y136.476 E.02275
G1 X95.531 Y135.919 E.01916
G1 X95.499 Y135.285 E.02158
G1 X95.543 Y134.614 E.02287
G1 X95.653 Y133.988 E.0216
G1 X95.829 Y133.378 E.02159
G1 X96.071 Y132.79 E.02159
G1 X96.375 Y132.232 E.02159
G1 X96.737 Y131.711 E.02159
G1 X97.178 Y131.208 E.02275
G1 X97.59 Y130.822 E.01916
G1 X98.097 Y130.44 E.02158
G1 X98.677 Y130.099 E.02287
G1 X99.257 Y129.839 E.0216
G1 X99.861 Y129.643 E.02159
G1 X100.483 Y129.513 E.02159
G1 X101.115 Y129.451 E.02159
G1 X101.75 Y129.458 E.02159
G1 X102.411 Y129.543 E.02265
G1 X102.966 Y129.666 E.01931
G1 X103.04 Y129.691 E.00267
G1 E-.84
;WIPE_START
G1 X103.565 Y129.871 E-.19968
G1 X103.967 Y130.062 E-.16032
;WIPE_END
G1 Z.6 F9000
G1 X104.98 Y138.584 Z.6
G1 Z.2
G1 E1.2 F1800
G1 X104.918 Y138.66 E.00333
G1 X104.143 Y139.318 E.03456
G1 X103.664 Y139.618 E.01919
G1 X103.184 Y139.841 E.018
G1 X102.684 Y140.011 E.01796
G1 X102.168 Y140.126 E.01796
G1 X101.643 Y140.184 E.01796
G1 X101.115 Y140.185 E.01796
G1 X100.589 Y140.13 E.01796
G1 X100.073 Y140.017 E.01796
G1 X99.572 Y139.85 E.01796
G1 X99.092 Y139.629 E.01796
G1 X98.639 Y139.357 E.01796
G1 X98.217 Y139.039 E.01796
G1 X97.833 Y138.676 E.01796
G1 X97.49 Y138.274 E.01796
G1 X97.192 Y137.838 E.01796
G1 X96.944 Y137.371 E.01796
G1 X96.747 Y136.881 E.01796
G1 X96.604 Y136.372 E.01796
G1 X96.495 Y135.331 E.03559
G1 X96.515 Y134.796 E.01819
G1 X96.6 Y134.274 E.01796
G1 X96.74 Y133.765 E.01796
G1 X96.934 Y133.274 E.01796
G1 X97.181 Y132.806 E.01796
G1 X97.476 Y132.368 E.01796
G1 X97.817 Y131.965 E.01796
G1 X98.618 Y131.29 E.03559
G1 X99.072 Y131.006 E.01819
G1 X99.551 Y130.783 E.01796
G1 X100.051 Y130.613 E.01796
G1 X100.567 Y130.499 E.01796
G1 X101.092 Y130.44 E.01796
G1 X101.621 Y130.439 E.01796
G1 X102.146 Y130.495 E.01796
G1 X103.154 Y130.779 E.03559
G1 X103.643 Y130.996 E.01819
G1 X104.097 Y131.267 E.01796
G1 X104.518 Y131.586 E.01796
G1 X104.903 Y131.948 E.01796
G1 X105.246 Y132.35 E.01796
G1 X105.543 Y132.787 E.01796
G1 X105.792 Y133.253 E.01796
G1 X105.988 Y133.743 E.01796
G1 X106.131 Y134.252 E.01796
G1 X106.218 Y134.773 E.01796
G1 X106.247 Y135.301 E.01796
G1 X106.22 Y135.829 E.01796
G1 X106.136 Y136.35 E.01796
G1 X105.996 Y136.86 E.01796
G1 X105.801 Y137.351 E.01796
G1 X105.527 Y137.818 E.01841
G1 X105.258 Y138.246 E.01718
G1 X105.006 Y138.553 E.01351
G1 E-.84
;WIPE_START
G1 X104.918 Y138.66 E-.04963
G1 X104.261 Y139.218 E-.31037
;WIPE_END
G1 Z.6 F9000
G1 X102.925 Y130.185 Z.6
G1 Z.2
G1 E1.2 F1800
;TYPE:Inner wall
;WIDTH:0.639242
G1 X103.355 Y130.323 E.02197
;WIDTH:0.622682
G1 X103.918 Y130.583 E.02926
;WIDTH:0.613716
G1 X104.414 Y130.886 E.02707
G1 X104.875 Y131.242 E.02706
G1 X105.295 Y131.645 E.02706
G1 X105.668 Y132.091 E.02706
G1 X105.991 Y132.575 E.02706
G1 X106.26 Y133.091 E.02706
G1 X106.471 Y133.633 E.02706
G1 X106.623 Y134.194 E.02706
;WIDTH:0.614742
G1 X106.711 Y134.731 E.02534
G1 X106.713 Y134.769 E.00177
;WIDTH:0.613714
G1 X106.739 Y135.35 E.02705
G1 X106.705 Y135.931 E.02706
G1 X106.607 Y136.504 E.02706
G1 X106.447 Y137.064 E.02706
;WIDTH:0.614548
G1 X106.212 Y137.633 E.02869
;WIDTH:0.639352
G1 X105.962 Y138.077 E.02474
G1 X105.643 Y138.562 E.02824
;WIDTH:0.622682
G1 X105.217 Y139.058 E.03087
;WIDTH:0.639356
G1 X104.839 Y139.399 E.02475
G1 X104.407 Y139.74 E.02676
;WIDTH:0.619884
G1 X103.851 Y140.077 E.03056
;WIDTH:0.613716
G1 X103.321 Y140.318 E.02707
G1 X102.768 Y140.5 E.02706
G1 X102.199 Y140.621 E.02706
G1 X101.621 Y140.679 E.02706
G1 X101.039 Y140.675 E.02706
G1 X100.461 Y140.608 E.02706
G1 X99.894 Y140.479 E.02706
G1 X99.344 Y140.29 E.02706
G1 X98.817 Y140.042 E.02706
G1 X98.321 Y139.738 E.02706
G1 X97.86 Y139.383 E.02706
G1 X97.441 Y138.98 E.02706
G1 X97.067 Y138.534 E.02706
G1 X96.744 Y138.05 E.02706
G1 X96.475 Y137.534 E.02706
G1 X96.264 Y136.992 E.02706
;WIDTH:0.61455
G1 X96.107 Y136.396 E.02868
;WIDTH:0.639352
G1 X96.037 Y135.892 E.02474
G1 X95.997 Y135.312 E.02824
;WIDTH:0.622684
G1 X96.03 Y134.694 E.02926
;WIDTH:0.613716
G1 X96.128 Y134.12 E.02707
G1 X96.288 Y133.561 E.02706
G1 X96.507 Y133.022 E.02706
G1 X96.783 Y132.51 E.02706
G1 X97.113 Y132.03 E.02706
;WIDTH:0.614548
G1 X97.518 Y131.566 E.02869
;WIDTH:0.639354
G1 X97.896 Y131.225 E.02474
G1 X98.354 Y130.867 E.02824
;WIDTH:0.622686
G1 X98.884 Y130.547 E.02926
;WIDTH:0.613708
G1 X99.414 Y130.307 E.02707
G1 X99.967 Y130.125 E.02706
G1 X100.536 Y130.004 E.02706
G1 X101.115 Y129.945 E.02706
G1 X101.697 Y129.949 E.02706
G1 X102.307 Y130.025 E.02863
;WIDTH:0.639242
G1 X102.804 Y130.146 E.02483
G1 X102.887 Y130.173 E.00423
; stop printing object Head.stl id:0 copy 0
; printing object Head-2.stl id:140704091341816 copy 0
G1 E-.84
;WIPE_START
G1 X103.355 Y130.323 E-.17717
G1 X103.817 Y130.536 E-.18283
;WIPE_END
G1 Z.6 F9000
G1 X169.018 Y124.563 Z.6
G1 Z.2
G1 E1.2 F1800
;TYPE:Outer wall
;WIDTH:0.459999
G1 X169.583 Y124.763 E.02036
G1 X170.093 Y125.002 E.01916
G1 X170.636 Y125.332 E.02158
G1 X171.167 Y125.745 E.02287
G1 X171.624 Y126.187 E.02159
G1 X172.029 Y126.676 E.02159
G1 X172.38 Y127.205 E.02159
G1 X172.671 Y127.77 E.02159
G1 X172.9 Y128.362 E.02159
G1 X173.06 Y128.974 E.02149
G1 X173.157 Y129.568 E.02045
G1 X173.186 Y130.239 E.02282
G1 X173.145 Y130.873 E.02159
G1 X173.035 Y131.498 E.02159
G1 X172.859 Y132.109 E.02159
G1 X172.617 Y132.696 E.02159
G1 X172.313 Y133.254 E.02159
G1 X171.951 Y133.776 E.02159
G1 X171.534 Y134.255 E.02159
G1 X171.069 Y134.687 E.02159
G1 X170.53 Y135.08 E.02265
G1 X170.043 Y135.372 E.01931
G1 X169.467 Y135.636 E.02152
G1 X168.827 Y135.844 E.02287
G1 X168.205 Y135.973 E.02159
G1 X167.573 Y136.035 E.02159
G1 X166.938 Y136.028 E.02159
G1 X166.274 Y135.945 E.02275
G1 X165.724 Y135.821 E.01916
G1 X165.123 Y135.616 E.02158
G1 X164.515 Y135.327 E.02287
G1 X163.975 Y134.993 E.02159
G1 X163.473 Y134.603 E.02159
G1 X163.017 Y134.161 E.02159
G1 X162.611 Y133.673 E.02159
G1 X162.26 Y133.143 E.02159
G1 X161.969 Y132.578 E.02159
G1 X161.74 Y131.986 E.02159
G1 X161.575 Y131.34 E.02265
G1 X161.483 Y130.779 E.01931
G1 X161.452 Y130.147 E.02152
G1 X161.495 Y129.476 E.02287
G1 X161.605 Y128.85 E.0216
G1 X161.782 Y128.24 E.02159
G1 X162.023 Y127.652 E.02159
G1 X162.327 Y127.094 E.02159
G1 X162.689 Y126.573 E.02159
G1 X163.106 Y126.093 E.02159
G1 X163.572 Y125.661 E.02159
G1 X164.111 Y125.265 E.02275
G1 X164.596 Y124.977 E.01916
G1 X165.173 Y124.713 E.02158
G1 X165.813 Y124.505 E.02287
G1 X166.435 Y124.375 E.02159
G1 X167.067 Y124.313 E.02159
G1 X167.702 Y124.32 E.02159
G1 X168.33 Y124.398 E.02149
G1 X168.952 Y124.539 E.02167
G1 X168.98 Y124.549 E.00102
G1 E-.84
;WIPE_START
G1 X169.583 Y124.763 E-.2301
G1 X169.909 Y124.916 E-.1299
;WIPE_END
G1 Z.6 F9000
G1 X170.929 Y133.452 Z.6
G1 Z.2
G1 E1.2 F1800
G1 X170.871 Y133.522 E.00309
G1 X170.488 Y133.886 E.01796
G1 X170.068 Y134.207 E.01796
G1 X169.59 Y134.466 E.01847
