; HEADER_BLOCK_START
; generated by Creality_Print V5.0.3.8744 on 2024-07-02 at 11:12:47
; total layer number: 91
; filament_density: 1.24
; filament_diameter: 1.75
; max_z_height: 14.60
; HEADER_BLOCK_END

; MINX = 73.11
; MINY = 25.01
; MINZ = 0.00
; MAXX = 146.38
; MAXY = 177.14
; MAXZ = 14.60

; THUMBNAIL_BLOCK_START

;
; THUMBNAIL_BLOCK_END

; THUMBNAIL_BLOCK_START

;
; THUMBNAIL_BLOCK_END

; external perimeters extrusion width = 0.42mm
; perimeters extrusion width = 0.45mm
; infill extrusion width = 0.45mm
; solid infill extrusion width = 0.42mm
; top infill extrusion width = 0.42mm
; first layer extrusion width = 0.46mm

; external perimeters extrusion width = 0.42mm
; perimeters extrusion width = 0.45mm
; infill extrusion width = 0.45mm
; solid infill extrusion width = 0.42mm
; top infill extrusion width = 0.42mm
; first layer extrusion width = 0.46mm

; external perimeters extrusion width = 0.42mm
; perimeters extrusion width = 0.45mm
; infill extrusion width = 0.45mm
; solid infill extrusion width = 0.42mm
; top infill extrusion width = 0.42mm
; first layer extrusion width = 0.46mm

; external perimeters extrusion width = 0.42mm
; perimeters extrusion width = 0.45mm
; infill extrusion width = 0.45mm
; solid infill extrusion width = 0.42mm
; top infill extrusion width = 0.42mm
; first layer extrusion width = 0.46mm

; EXECUTABLE_BLOCK_START
M73 P0 R100
M201 X5000 Y5000 Z500 E5000
M203 X500 Y500 Z30 E100
M204 P5000 R2500 T5000 ; sets acceleration (P, T) and retract acceleration (R), mm/sec^2
M205 X10.00 Y10.00 Z0.40 E5.00 ; sets the jerk limits, mm/sec
;TYPE:Custom
M220 S100 ;Reset Feedrate 
M221 S100 ;Reset Flowrate 
 
M140 S60 ;Set final bed temp 
G28 ;Home 
 
G92 E0 ;Reset Extruder 
G1 Z2.0 F3000 ;Move Z Axis up 
M104 S220 ;Set final nozzle temp 
G1 X-2.1 Y20 Z0.28 F5000.0 ;Move to start position 
M190 S60 ;Wait for bed temp to stabilize 
M109 S220 ;Wait for nozzle temp to stabilize 
G1 X-2.1 Y145.0 Z0.28 F1500.0 E15 ;Draw the first line 
G1 X-2.4 Y145.0 Z0.28 F5000.0 ;Move to side a little 
G1 X-2.4 Y20 Z0.28 F1500.0 E30 ;Draw the second line 
G92 E0  ;Reset Extruder 
G1 E-1.0000 F1800 ;Retract a bit 
G1 Z2.0 F3000 ;Move Z Axis up 
G1 E0.0000 F1800
G90
G21
M83 ; use relative distances for extrusion
; filament start gcode
M106 S0
;LAYER_CHANGE
;Z:0.2
;HEIGHT:0.2
;BEFORE_LAYER_CHANGE
;0.2
G92 E0

G1 E-1.2 F1800
;_SET_FAN_SPEED_CHANGING_LAYER
M204 P500
M205 X8 Y8
; printing object LegOuterPart-3.stl id:1681052904512 copy 0
M204 T500
G1 Z.4 F9000
G1 X116.556 Y31.756
G1 Z.4
G1 Z.2
G1 E1.2 F1800
;TYPE:Inner wall
;WIDTH:0.459999
G1 X116.556 Y48.645 E.57399
G1 X112.514 Y48.645 E.13736
G1 X112.514 Y41.012 E.25943
G1 X113.458 Y40.741 E.03337
G1 X113.601 Y40.617 E.00643
G1 X113.709 Y40.434 E.00722
G1 X113.75 Y40.212 E.00769
G1 X113.75 Y31.055 E.3112
G1 X116.918 Y31.055 E.10768
G1 X116.556 Y31.487 E.01915
G1 X116.556 Y31.716 E.00781
G1 X116.973 Y31.487 F9000
;TYPE:Outer wall
G1 F1800
G1 X116.973 Y49.062 E.59733
G1 X112.273 Y49.062 E.15974
G1 X112.097 Y49.019 E.00615
G1 X112.097 Y40.687 E.28317
G1 X113.176 Y40.414 E.03781
G1 X113.283 Y40.347 E.00431
G1 X113.333 Y40.212 E.00489
G1 X113.333 Y30.638 E.32537
G1 X116.125 Y30.638 E.09487
;WIDTH:0.497153
G1 X116.477 Y30.657 E.01306
;WIDTH:0.534306
G1 X116.829 Y30.675 E.01413
;WIDTH:0.571459
G1 X117.182 Y30.694 E.0152
G1 X137.017 Y30.694 E.85431
G1 X137.017 Y30.958 E.01138
G1 X137.017 Y31.222 E.01138
G1 X117.182 Y31.222 E.85431
;WIDTH:0.575464
G1 X117.136 Y31.224 E.002
G1 X117.082 Y31.312 E.00446
;WIDTH:0.536976
G1 X117.027 Y31.399 E.00414
;WIDTH:0.498488
G1 X116.994 Y31.453 E.00233
G1 E-.84
;WIPE_START
G1 X116.993 Y32.453 E-.36
;WIPE_END
G1 Z.6 F9000
G1 X115.802 Y31.222
G1 Z.6
G1 Z.2
G1 E1.2 F1800
;TYPE:Bottom surface
;WIDTH:0.46142
G1 F4800
G1 X116.202 Y31.622 E.01927
G1 X116.202 Y32.213 E.02018
G1 X115.398 Y31.41 E.03876
G1 X114.806 Y31.41 E.02018
G1 X116.202 Y32.805 E.0673
G1 X116.202 Y33.397 E.02018
G1 X114.214 Y31.41 E.09585
G1 X114.105 Y31.41 E.00373
G1 X114.105 Y31.892 E.01645
G1 X116.202 Y33.989 E.10113
G1 X116.202 Y34.581 E.02018
G1 X114.105 Y32.484 E.10113
G1 X114.105 Y33.076 E.02018
G1 X116.202 Y35.173 E.10113
G1 X116.202 Y35.765 E.02018
G1 X114.105 Y33.668 E.10113
G1 X114.105 Y34.26 E.02018
G1 X116.202 Y36.356 E.10113
G1 X116.202 Y36.948 E.02018
G1 X114.105 Y34.851 E.10113
G1 X114.105 Y35.443 E.02018
G1 X116.202 Y37.54 E.10113
G1 X116.202 Y38.132 E.02018
G1 X114.105 Y36.035 E.10113
G1 X114.105 Y36.627 E.02018
M73 P0 R99
G1 X116.202 Y38.724 E.10113
G1 X116.202 Y39.316 E.02018
G1 X114.105 Y37.219 E.10113
G1 X114.105 Y37.811 E.02018
G1 X116.202 Y39.907 E.10113
G1 X116.202 Y40.499 E.02018
G1 X114.105 Y38.402 E.10113
G1 X114.105 Y38.994 E.02018
G1 X116.202 Y41.091 E.10113
G1 X116.202 Y41.683 E.02018
G1 X114.105 Y39.586 E.10113
G1 X114.105 Y40.178 E.02018
G1 X116.202 Y42.275 E.10113
G1 X116.202 Y42.867 E.02018
G1 X113.988 Y40.653 E.10675
G1 X113.873 Y40.847 E.00768
G1 X113.722 Y40.979 E.00685
G1 X116.202 Y43.459 E.1196
G1 X116.202 Y44.05 E.02018
G1 X113.324 Y41.172 E.1388
G1 X112.869 Y41.288 E.016
G1 X112.869 Y41.31 E.00075
G1 X116.202 Y44.642 E.16073
G1 X116.202 Y45.234 E.02018
G1 X112.869 Y41.901 E.16073
G1 X112.869 Y42.493 E.02018
G1 X116.202 Y45.826 E.16073
G1 X116.202 Y46.418 E.02018
G1 X112.869 Y43.085 E.16073
G1 X112.869 Y43.677 E.02018
G1 X116.202 Y47.01 E.16073
G1 X116.202 Y47.601 E.02018
G1 X112.869 Y44.269 E.16073
G1 X112.869 Y44.861 E.02018
G1 X116.202 Y48.193 E.16073
G1 X116.202 Y48.291 E.00331
G1 X115.707 Y48.291 E.01687
G1 X112.869 Y45.452 E.13687
G1 X112.869 Y46.044 E.02018
G1 X115.115 Y48.291 E.10833
G1 X114.523 Y48.291 E.02018
G1 X112.869 Y46.636 E.07979
G1 X112.869 Y47.228 E.02018
G1 X113.931 Y48.291 E.05124
G1 X113.34 Y48.291 E.02018
G1 X112.681 Y47.632 E.03175
G1 E-.84 F1800
;WIPE_START
G1 F4800
G1 X113.34 Y48.291 E-.33517
G1 X113.409 Y48.291 E-.02483
;WIPE_END
G1 Z.6 F9000
G1 X140.85 Y40.155 Z.6
G1 Z.2
G1 E1.2 F1800
;TYPE:Inner wall
;WIDTH:0.459999
G1 X143.656 Y40.155 E.09536
G1 X143.656 Y48.645 E.28854
G1 X140.85 Y48.645 E.09536
G1 X140.85 Y40.195 E.28718
G1 X140.433 Y39.738 F9000
;TYPE:Outer wall
G1 F1800
G1 X144.073 Y39.738 E.12371
G1 X144.073 Y49.062 E.31689
G1 X140.433 Y49.062 E.12371
G1 X140.433 Y39.778 E.31553
G1 E-.84
;WIPE_START
G1 X141.433 Y39.767 E-.36
;WIPE_END
G1 Z.6 F9000
G1 X142.638 Y40.322 Z.6
G1 Z.2
G1 E1.2 F1800
;TYPE:Bottom surface
;WIDTH:0.463717
G1 F4800
G1 X143.302 Y40.985 E.03217
G1 X143.302 Y41.58 E.02041
G1 X142.231 Y40.51 E.05192
G1 X141.636 Y40.51 E.02041
G1 X143.302 Y42.176 E.08078
G1 X143.302 Y42.771 E.02041
G1 X141.205 Y40.674 E.10168
G1 X141.205 Y41.269 E.02041
G1 X143.302 Y43.366 E.10168
G1 X143.302 Y43.961 E.02041
G1 X141.205 Y41.864 E.10168
G1 X141.205 Y42.459 E.02041
G1 X143.302 Y44.556 E.10168
G1 X143.302 Y45.151 E.02041
G1 X141.205 Y43.054 E.10168
G1 X141.205 Y43.649 E.02041
G1 X143.302 Y45.746 E.10168
G1 X143.302 Y46.341 E.02041
G1 X141.205 Y44.244 E.10168
G1 X141.205 Y44.84 E.02041
G1 X143.302 Y46.936 E.10168
G1 X143.302 Y47.531 E.02041
G1 X141.205 Y45.435 E.10168
G1 X141.205 Y46.03 E.02041
G1 X143.302 Y48.127 E.10168
G1 X143.302 Y48.291 E.00562
G1 X142.87 Y48.291 E.01478
G1 X141.205 Y46.625 E.08078
G1 X141.205 Y47.22 E.02041
G1 X142.275 Y48.291 E.05192
G1 X141.68 Y48.291 E.02041
G1 X141.017 Y47.627 E.03216
; stop printing object LegOuterPart-3.stl id:1681052904512 copy 0
; printing object LegOuterPart-2.stl id:0 copy 0
G1 E-.84 F1800
;WIPE_START
G1 F4800
G1 X141.68 Y48.291 E-.33765
G1 X141.742 Y48.291 E-.02235
;WIPE_END
G1 Z.6 F9000
G1 X116.771 Y76.508 Z.6
G1 Z.2
G1 E1.2 F1800
;TYPE:Inner wall
;WIDTH:0.459999
G1 X116.771 Y93.396 E.57399
G1 X112.729 Y93.396 E.13736
G1 X112.729 Y85.763 E.25943
G1 X113.673 Y85.492 E.03337
G1 X113.816 Y85.368 E.00643
G1 X113.924 Y85.186 E.00722
G1 X113.965 Y84.963 E.00769
G1 X113.965 Y75.806 E.3112
G1 X117.133 Y75.806 E.10768
G1 X116.771 Y76.238 E.01915
G1 X116.771 Y76.468 E.00781
G1 X117.188 Y76.238 F9000
;TYPE:Outer wall
G1 F1800
G1 X117.188 Y93.813 E.59733
G1 X112.488 Y93.813 E.15974
G1 X112.312 Y93.77 E.00615
G1 X112.312 Y85.438 E.28317
G1 X113.39 Y85.165 E.03781
G1 X113.498 Y85.098 E.00431
G1 X113.548 Y84.963 E.00489
G1 X113.548 Y75.389 E.32537
G1 X116.339 Y75.389 E.09487
;WIDTH:0.497153
G1 X116.692 Y75.408 E.01306
;WIDTH:0.534306
G1 X117.044 Y75.426 E.01413
;WIDTH:0.571458
G1 X117.396 Y75.445 E.0152
G1 X137.232 Y75.445 E.85431
G1 X137.232 Y75.709 E.01138
;WIDTH:0.571459
G1 X137.232 Y75.974 E.01138
G1 X117.396 Y75.974 E.85431
;WIDTH:0.575464
G1 X117.35 Y75.976 E.002
G1 X117.296 Y76.063 E.00446
;WIDTH:0.536976
G1 X117.242 Y76.15 E.00414
;WIDTH:0.498488
G1 X117.209 Y76.204 E.00233
G1 X116.017 Y75.973 F9000
;TYPE:Bottom surface
;WIDTH:0.46142
G1 F4800
G1 X116.416 Y76.373 E.01927
G1 X116.416 Y76.965 E.02018
G1 X115.612 Y76.161 E.03876
G1 X115.021 Y76.161 E.02018
G1 X116.416 Y77.556 E.06731
G1 X116.416 Y78.148 E.02018
G1 X114.429 Y76.161 E.09585
G1 X114.319 Y76.161 E.00373
G1 X114.319 Y76.643 E.01645
G1 X116.416 Y78.74 E.10113
G1 X116.416 Y79.332 E.02018
G1 X114.319 Y77.235 E.10113
G1 X114.319 Y77.827 E.02018
G1 X116.416 Y79.924 E.10113
G1 X116.416 Y80.516 E.02018
G1 X114.319 Y78.419 E.10113
G1 X114.319 Y79.011 E.02018
G1 X116.416 Y81.108 E.10113
G1 X116.416 Y81.699 E.02018
G1 X114.319 Y79.603 E.10113
G1 X114.319 Y80.194 E.02018
G1 X116.416 Y82.291 E.10113
G1 X116.416 Y82.883 E.02018
G1 X114.319 Y80.786 E.10113
G1 X114.319 Y81.378 E.02018
G1 X116.416 Y83.475 E.10113
G1 X116.416 Y84.067 E.02018
G1 X114.319 Y81.97 E.10113
G1 X114.319 Y82.562 E.02018
G1 X116.416 Y84.659 E.10113
G1 X116.416 Y85.25 E.02018
G1 X114.319 Y83.154 E.10113
G1 X114.319 Y83.745 E.02018
G1 X116.416 Y85.842 E.10113
G1 X116.416 Y86.434 E.02018
G1 X114.319 Y84.337 E.10113
G1 X114.319 Y84.929 E.02018
G1 X116.416 Y87.026 E.10113
G1 X116.416 Y87.618 E.02018
G1 X114.203 Y85.404 E.10675
G1 X114.088 Y85.598 E.00768
G1 X113.936 Y85.73 E.00685
G1 X116.416 Y88.21 E.1196
G1 X116.416 Y88.802 E.02018
G1 X113.538 Y85.924 E.1388
G1 X113.083 Y86.039 E.016
G1 X113.083 Y86.061 E.00075
G1 X116.416 Y89.393 E.16073
G1 X116.416 Y89.985 E.02018
G1 X113.083 Y86.653 E.16073
G1 X113.083 Y87.244 E.02018
G1 X116.416 Y90.577 E.16073
G1 X116.416 Y91.169 E.02018
G1 X113.083 Y87.836 E.16073
G1 X113.083 Y88.428 E.02018
G1 X116.416 Y91.761 E.16073
G1 X116.416 Y92.353 E.02018
G1 X113.083 Y89.02 E.16073
G1 X113.083 Y89.612 E.02018
G1 X116.416 Y92.945 E.16073
G1 X116.416 Y93.042 E.00331
G1 X115.921 Y93.042 E.01687
G1 X113.083 Y90.204 E.13687
G1 X113.083 Y90.796 E.02018
G1 X115.33 Y93.042 E.10833
G1 X114.738 Y93.042 E.02018
G1 X113.083 Y91.387 E.07979
G1 X113.083 Y91.979 E.02018
G1 X114.146 Y93.042 E.05124
G1 X113.554 Y93.042 E.02018
G1 X112.896 Y92.383 E.03175
G1 E-.84 F1800
;WIPE_START
G1 F4800
G1 X113.554 Y93.042 E-.33517
G1 X113.623 Y93.042 E-.02483
;WIPE_END
G1 Z.6 F9000
G1 X141.065 Y84.906 Z.6
G1 Z.2
G1 E1.2 F1800
;TYPE:Inner wall
;WIDTH:0.459999
G1 X143.871 Y84.906 E.09536
G1 X143.871 Y93.396 E.28854
G1 X141.065 Y93.396 E.09536
G1 X141.065 Y84.946 E.28718
G1 X140.648 Y84.489 F9000
;TYPE:Outer wall
G1 F1800
G1 X144.288 Y84.489 E.12371
G1 X144.288 Y93.813 E.31689
G1 X140.648 Y93.813 E.12371
G1 X140.648 Y84.529 E.31553
G1 E-.84
;WIPE_START
G1 X141.648 Y84.518 E-.36
;WIPE_END
G1 Z.6 F9000
G1 X142.853 Y85.073 Z.6
G1 Z.2
G1 E1.2 F1800
;TYPE:Bottom surface
;WIDTH:0.463717
G1 F4800
G1 X143.516 Y85.737 E.03217
G1 X143.516 Y86.332 E.02041
G1 X142.445 Y85.261 E.05192
G1 X141.85 Y85.261 E.02041
G1 X143.516 Y86.927 E.08078
G1 X143.516 Y87.522 E.02041
G1 X141.419 Y85.425 E.10168
G1 X141.419 Y86.02 E.02041
G1 X143.516 Y88.117 E.10168
G1 X143.516 Y88.712 E.02041
G1 X141.419 Y86.615 E.10168
G1 X141.419 Y87.21 E.02041
G1 X143.516 Y89.307 E.10168
G1 X143.516 Y89.902 E.02041
G1 X141.419 Y87.805 E.10168
G1 X141.419 Y88.4 E.02041
G1 X143.516 Y90.497 E.10168
G1 X143.516 Y91.092 E.02041
G1 X141.419 Y88.996 E.10168
G1 X141.419 Y89.591 E.02041
G1 X143.516 Y91.688 E.10168
G1 X143.516 Y92.283 E.02041
G1 X141.419 Y90.186 E.10168
G1 X141.419 Y90.781 E.02041
G1 X143.516 Y92.878 E.10168
G1 X143.516 Y93.042 E.00562
G1 X143.085 Y93.042 E.01478
G1 X141.419 Y91.376 E.08078
G1 X141.419 Y91.971 E.02041
G1 X142.49 Y93.042 E.05192
G1 X141.895 Y93.042 E.02041
G1 X141.232 Y92.378 E.03216
; stop printing object LegOuterPart-2.stl id:0 copy 0
; printing object LegOuterPart-1.stl id:0 copy 0
G1 E-.84 F1800
;WIPE_START
G1 F4800
G1 X141.895 Y93.042 E-.33765
G1 X141.957 Y93.042 E-.02235
;WIPE_END
G1 Z.6 F9000
G1 X115.164 Y115.247 Z.6
G1 Z.2
G1 E1.2 F1800
;TYPE:Inner wall
;WIDTH:0.459999
G1 X115.164 Y132.136 E.57399
G1 X111.122 Y132.136 E.13736
G1 X111.122 Y124.502 E.25943
G1 X112.066 Y124.232 E.03337
G1 X112.209 Y124.108 E.00643
G1 X112.317 Y123.925 E.00722
G1 X112.358 Y123.702 E.00769
G1 X112.358 Y114.546 E.3112
G1 X115.526 Y114.546 E.10768
G1 X115.164 Y114.977 E.01915
G1 X115.164 Y115.207 E.00781
G1 X115.581 Y114.977 F9000
;TYPE:Outer wall
G1 F1800
G1 X115.581 Y132.553 E.59733
G1 X110.881 Y132.553 E.15974
G1 X110.705 Y132.509 E.00615
G1 X110.705 Y124.178 E.28317
G1 X111.784 Y123.905 E.03781
G1 X111.891 Y123.838 E.00431
G1 X111.941 Y123.702 E.00489
G1 X111.941 Y114.129 E.32537
G1 X114.732 Y114.129 E.09487
;WIDTH:0.497153
G1 X115.085 Y114.147 E.01306
;WIDTH:0.534306
G1 X115.437 Y114.166 E.01413
;WIDTH:0.571458
G1 X115.79 Y114.185 E.0152
G1 X135.625 Y114.185 E.85431
G1 X135.625 Y114.449 E.01138
;WIDTH:0.571459
G1 X135.625 Y114.713 E.01138
G1 X115.79 Y114.713 E.85431
;WIDTH:0.575464
G1 X115.743 Y114.715 E.002
G1 X115.689 Y114.803 E.00446
;WIDTH:0.536976
G1 X115.635 Y114.89 E.00414
;WIDTH:0.498488
G1 X115.602 Y114.943 E.00233
G1 X114.41 Y114.713 F9000
;TYPE:Bottom surface
;WIDTH:0.46142
G1 F4800
G1 X114.809 Y115.112 E.01927
G1 X114.809 Y115.704 E.02018
G1 X114.006 Y114.9 E.03876
G1 X113.414 Y114.9 E.02018
G1 X114.809 Y116.296 E.06731
G1 X114.809 Y116.888 E.02018
G1 X112.822 Y114.9 E.09585
G1 X112.713 Y114.9 E.00373
G1 X112.713 Y115.383 E.01645
G1 X114.809 Y117.48 E.10113
G1 X114.809 Y118.071 E.02018
G1 X112.713 Y115.975 E.10113
G1 X112.713 Y116.567 E.02018
G1 X114.809 Y118.663 E.10113
G1 X114.809 Y119.255 E.02018
G1 X112.713 Y117.158 E.10113
G1 X112.713 Y117.75 E.02018
G1 X114.809 Y119.847 E.10113
G1 X114.809 Y120.439 E.02018
G1 X112.713 Y118.342 E.10113
G1 X112.713 Y118.934 E.02018
G1 X114.809 Y121.031 E.10113
G1 X114.809 Y121.623 E.02018
G1 X112.713 Y119.526 E.10113
G1 X112.713 Y120.118 E.02018
G1 X114.809 Y122.214 E.10113
G1 X114.809 Y122.806 E.02018
G1 X112.713 Y120.709 E.10113
G1 X112.713 Y121.301 E.02018
G1 X114.809 Y123.398 E.10113
G1 X114.809 Y123.99 E.02018
G1 X112.713 Y121.893 E.10113
G1 X112.713 Y122.485 E.02018
G1 X114.809 Y124.582 E.10113
G1 X114.809 Y125.174 E.02018
G1 X112.713 Y123.077 E.10113
G1 X112.713 Y123.669 E.02018
G1 X114.809 Y125.766 E.10113
G1 X114.809 Y126.357 E.02018
G1 X112.596 Y124.144 E.10675
G1 X112.481 Y124.338 E.00768
G1 X112.329 Y124.469 E.00685
G1 X114.809 Y126.949 E.1196
G1 X114.809 Y127.541 E.02018
G1 X111.931 Y124.663 E.1388
G1 X111.477 Y124.778 E.016
G1 X111.477 Y124.8 E.00075
G1 X114.809 Y128.133 E.16073
G1 X114.809 Y128.725 E.02018
G1 X111.477 Y125.392 E.16073
G1 X111.477 Y125.984 E.02018
G1 X114.809 Y129.317 E.16073
G1 X114.809 Y129.908 E.02018
G1 X111.477 Y126.576 E.16073
G1 X111.477 Y127.168 E.02018
G1 X114.809 Y130.5 E.16073
G1 X114.809 Y131.092 E.02018
G1 X111.477 Y127.759 E.16073
G1 X111.477 Y128.351 E.02018
G1 X114.809 Y131.684 E.16073
G1 X114.809 Y131.781 E.00331
G1 X114.315 Y131.781 E.01687
G1 X111.477 Y128.943 E.13687
G1 X111.477 Y129.535 E.02018
G1 X113.723 Y131.781 E.10833
G1 X113.131 Y131.781 E.02018
G1 X111.477 Y130.127 E.07979
G1 X111.477 Y130.719 E.02018
G1 X112.539 Y131.781 E.05124
G1 X111.947 Y131.781 E.02018
G1 X111.289 Y131.123 E.03175
G1 E-.84 F1800
;WIPE_START
G1 F4800
G1 X111.947 Y131.781 E-.33517
G1 X112.016 Y131.781 E-.02483
;WIPE_END
G1 Z.6 F9000
G1 X139.458 Y123.646 Z.6
G1 Z.2
G1 E1.2 F1800
;TYPE:Inner wall
;WIDTH:0.459999
G1 X142.264 Y123.646 E.09536
G1 X142.264 Y132.136 E.28854
G1 X139.458 Y132.136 E.09536
G1 X139.458 Y123.686 E.28718
G1 X139.041 Y123.229 F9000
;TYPE:Outer wall
G1 F1800
