; HEADER_BLOCK_START
; generated by Creality_Print V5.0.3.8744 on 2024-07-02 at 11:14:38
; total layer number: 106
; filament_density: 1.24
; filament_diameter: 1.75
; max_z_height: 17.00
; HEADER_BLOCK_END

; MINX = 93.42
; MINY = 37.71
; MINZ = -0.00
; MAXX = 194.82
; MAXY = 178.14
; MAXZ = 17.00

; THUMBNAIL_BLOCK_START

;
; THUMBNAIL_BLOCK_END

; THUMBNAIL_BLOCK_START

;
; THUMBNAIL_BLOCK_END

; external perimeters extrusion width = 0.42mm
; perimeters extrusion width = 0.45mm
; infill extrusion width = 0.45mm
; solid infill extrusion width = 0.42mm
; top infill extrusion width = 0.42mm
; first layer extrusion width = 0.46mm

; external perimeters extrusion width = 0.42mm
; perimeters extrusion width = 0.45mm
; infill extrusion width = 0.45mm
; solid infill extrusion width = 0.42mm
; top infill extrusion width = 0.42mm
; first layer extrusion width = 0.46mm

; external perimeters extrusion width = 0.42mm
; perimeters extrusion width = 0.45mm
; infill extrusion width = 0.45mm
; solid infill extrusion width = 0.42mm
; top infill extrusion width = 0.42mm
; first layer extrusion width = 0.46mm

; external perimeters extrusion width = 0.42mm
; perimeters extrusion width = 0.45mm
; infill extrusion width = 0.45mm
; solid infill extrusion width = 0.42mm
; top infill extrusion width = 0.42mm
; first layer extrusion width = 0.46mm

; EXECUTABLE_BLOCK_START
M73 P0 R111
M201 X5000 Y5000 Z500 E5000
M203 X500 Y500 Z30 E100
M204 P5000 R2500 T5000 ; sets acceleration (P, T) and retract acceleration (R), mm/sec^2
M205 X10.00 Y10.00 Z0.40 E5.00 ; sets the jerk limits, mm/sec
;TYPE:Custom
M220 S100 ;Reset Feedrate 
M221 S100 ;Reset Flowrate 
 
M140 S60 ;Set final bed temp 
G28 ;Home 
 
G92 E0 ;Reset Extruder 
G1 Z2.0 F3000 ;Move Z Axis up 
M104 S220 ;Set final nozzle temp 
G1 X-2.1 Y20 Z0.28 F5000.0 ;Move to start position 
M190 S60 ;Wait for bed temp to stabilize 
M109 S220 ;Wait for nozzle temp to stabilize 
G1 X-2.1 Y145.0 Z0.28 F1500.0 E15 ;Draw the first line 
G1 X-2.4 Y145.0 Z0.28 F5000.0 ;Move to side a little 
G1 X-2.4 Y20 Z0.28 F1500.0 E30 ;Draw the second line 
G92 E0  ;Reset Extruder 
G1 E-1.0000 F1800 ;Retract a bit 
G1 Z2.0 F3000 ;Move Z Axis up 
G1 E0.0000 F1800
G90
G21
M83 ; use relative distances for extrusion
; filament start gcode
M106 S0
;LAYER_CHANGE
;Z:0.2
;HEIGHT:0.2
;BEFORE_LAYER_CHANGE
;0.2
G92 E0

G1 E-1.2 F1800
;_SET_FAN_SPEED_CHANGING_LAYER
M204 P500
M205 X8 Y8
; printing object LegUPart-3.stl id:0 copy 0
M204 T500
G1 Z.4 F9000
G1 X190.682 Y118.291
G1 Z.4
G1 Z.2
G1 E1.2 F1800
;TYPE:Inner wall
;WIDTH:0.459999
G1 X190.798 Y118.336 E.00424
G1 X191.985 Y118.336 E.04032
G1 X189.456 Y120.865 E.12155
G1 X189.273 Y121.307 E.01627
G1 X189.273 Y127.142 E.1983
G1 X160.837 Y127.142 E.96642
G1 X160.242 Y127.11 E.02027
G1 X160.242 Y126.285 E.02804
G1 X160.845 Y126.236 E.02058
G1 X187.741 Y126.236 E.9141
G1 X187.849 Y126.227 E.00369
G1 X188.184 Y126.053 E.01281
G1 X188.357 Y125.719 E.01281
G1 X188.367 Y125.611 E.00369
G1 X188.367 Y92.268 E1.13321
G1 X188.184 Y91.825 E.01627
G1 X187.741 Y91.642 E.01627
G1 X160.837 Y91.642 E.91437
G1 X160.242 Y91.61 E.02027
G1 X160.242 Y90.785 E.02804
G1 X160.845 Y90.736 E.02058
G1 X189.273 Y90.736 E.96615
G1 X189.282 Y96.679 E.20197
G1 X189.456 Y97.013 E.01281
G1 X191.985 Y99.542 E.12155
G1 X190.798 Y99.542 E.04032
G1 X190.376 Y99.706 E.01539
G1 X190.231 Y99.905 E.00837
G1 X190.173 Y100.168 E.00915
G1 X190.173 Y117.711 E.59623
G1 X190.231 Y117.974 E.00915
G1 X190.376 Y118.172 E.00837
G1 X190.645 Y118.277 E.00979
G1 X190.798 Y117.919 F9000
;TYPE:Outer wall
G1 F1800
G1 X192.992 Y117.919 E.07455
G1 X189.751 Y121.16 E.15577
G1 X189.69 Y121.307 E.00542
G1 X189.69 Y127.559 E.21247
G1 X160.864 Y127.559 E.9797
G1 X159.825 Y127.493 E.03538
G1 X159.825 Y125.9 E.05416
G1 X160.829 Y125.819 E.03423
G1 X187.741 Y125.819 E.91467
G1 X187.889 Y125.758 E.00542
G1 X187.95 Y125.611 E.00542
G1 X187.95 Y92.268 E1.13321
G1 X187.889 Y92.12 E.00542
G1 X187.741 Y92.059 E.00542
G1 X160.636 Y92.049 E.9212
G1 X159.825 Y91.993 E.02765
G1 X159.825 Y90.4 E.05416
G1 X160.829 Y90.319 E.03423
G1 X189.69 Y90.319 E.98089
G1 X189.69 Y96.571 E.21247
G1 X189.751 Y96.718 E.00542
G1 X192.992 Y99.959 E.15577
G1 X190.798 Y99.959 E.07455
G1 X190.658 Y100.014 E.00513
G1 X190.59 Y100.168 E.00572
G1 X190.59 Y117.711 E.59623
G1 X190.658 Y117.864 E.00572
M73 P0 R110
G1 X190.761 Y117.905 E.00377
G1 E-.84
;WIPE_START
G1 X191.761 Y117.911 E-.36
;WIPE_END
G1 Z.6 F9000
G1 X188.255 Y90.903
G1 Z.6
G1 Z.2
G1 E1.2 F1800
;TYPE:Bottom surface
;WIDTH:0.463474
G1 F4800
G1 X188.918 Y91.566 E.03212
G1 X188.918 Y92.161 E.02038
G1 X187.661 Y90.903 E.06095
G1 X187.638 Y91.475 F9000
G1 F4800
G1 X187.254 Y91.091 E.01863
G1 X186.659 Y91.091 E.02038
G1 X186.856 Y91.288 E.00954
G1 X186.261 Y91.288 E.02038
G1 X186.064 Y91.091 E.00954
G1 X185.469 Y91.091 E.02038
G1 X185.666 Y91.288 E.00954
G1 X185.071 Y91.288 E.02038
G1 X184.875 Y91.091 E.00954
G1 X184.28 Y91.091 E.02038
G1 X184.477 Y91.288 E.00954
G1 X183.882 Y91.288 E.02038
G1 X183.685 Y91.091 E.00954
G1 X183.09 Y91.091 E.02038
G1 X183.287 Y91.288 E.00954
G1 X182.692 Y91.288 E.02038
G1 X182.496 Y91.091 E.00954
G1 X181.901 Y91.091 E.02038
G1 X182.098 Y91.288 E.00954
G1 X181.503 Y91.288 E.02038
G1 X181.306 Y91.091 E.00954
G1 X180.711 Y91.091 E.02038
G1 X180.908 Y91.288 E.00954
G1 X180.313 Y91.288 E.02038
G1 X180.116 Y91.091 E.00954
G1 X179.522 Y91.091 E.02038
G1 X179.719 Y91.288 E.00954
G1 X179.124 Y91.288 E.02038
G1 X178.927 Y91.091 E.00954
G1 X178.332 Y91.091 E.02038
G1 X178.529 Y91.288 E.00954
G1 X177.934 Y91.288 E.02038
G1 X177.737 Y91.091 E.00954
G1 X177.143 Y91.091 E.02038
G1 X177.34 Y91.288 E.00954
G1 X176.745 Y91.288 E.02038
G1 X176.548 Y91.091 E.00954
G1 X175.953 Y91.091 E.02038
G1 X176.15 Y91.288 E.00954
G1 X175.555 Y91.288 E.02038
G1 X175.358 Y91.091 E.00954
G1 X174.764 Y91.091 E.02038
G1 X174.961 Y91.288 E.00954
G1 X174.366 Y91.288 E.02038
G1 X174.169 Y91.091 E.00954
G1 X173.574 Y91.091 E.02038
G1 X173.771 Y91.288 E.00954
G1 X173.176 Y91.288 E.02038
G1 X172.979 Y91.091 E.00954
G1 X172.385 Y91.091 E.02038
G1 X172.582 Y91.288 E.00954
G1 X171.987 Y91.288 E.02038
G1 X171.79 Y91.091 E.00954
G1 X171.195 Y91.091 E.02038
G1 X171.392 Y91.288 E.00954
G1 X170.797 Y91.288 E.02038
G1 X170.6 Y91.091 E.00954
G1 X170.006 Y91.091 E.02038
G1 X170.203 Y91.288 E.00954
G1 X169.608 Y91.288 E.02038
G1 X169.411 Y91.091 E.00954
G1 X168.816 Y91.091 E.02038
G1 X169.013 Y91.288 E.00954
G1 X168.418 Y91.288 E.02038
G1 X168.221 Y91.091 E.00954
G1 X167.627 Y91.091 E.02038
G1 X167.823 Y91.288 E.00954
G1 X167.229 Y91.288 E.02038
G1 X167.032 Y91.091 E.00954
G1 X166.437 Y91.091 E.02038
G1 X166.634 Y91.288 E.00954
G1 X166.039 Y91.288 E.02038
G1 X165.842 Y91.091 E.00954
G1 X165.248 Y91.091 E.02038
G1 X165.444 Y91.288 E.00954
G1 X164.85 Y91.288 E.02038
G1 X164.653 Y91.091 E.00954
G1 X164.058 Y91.091 E.02038
G1 X164.255 Y91.288 E.00954
G1 X163.66 Y91.288 E.02038
G1 X163.463 Y91.091 E.00954
G1 X162.869 Y91.091 E.02038
G1 X163.065 Y91.288 E.00954
G1 X162.471 Y91.288 E.02038
G1 X162.274 Y91.091 E.00954
G1 X161.679 Y91.091 E.02038
G1 X161.876 Y91.288 E.00954
G1 X161.281 Y91.288 E.02038
G1 X161.084 Y91.091 E.00954
G1 X160.596 Y91.112 E.01674
G1 X160.596 Y91.197 E.00293
G1 X160.874 Y91.475 E.01347
G1 E-.84 F1800
;WIPE_START
G1 F4800
G1 X160.596 Y91.197 E-.14145
G1 X160.596 Y91.112 E-.03077
G1 X161.084 Y91.091 E-.17588
G1 X161.108 Y91.114 E-.0119
;WIPE_END
G1 Z.6 F9000
G1 X188.534 Y92.371 Z.6
G1 Z.2
G1 E1.2 F1800
G1 F4800
G1 X188.918 Y92.755 E.01863
G1 X188.918 Y93.35 E.02038
G1 X188.721 Y93.153 E.00954
G1 X188.721 Y93.748 E.02038
G1 X188.918 Y93.945 E.00954
G1 X188.918 Y94.54 E.02038
G1 X188.721 Y94.343 E.00954
G1 X188.721 Y94.938 E.02038
G1 X188.918 Y95.134 E.00954
G1 X188.918 Y95.729 E.02038
G1 X188.721 Y95.532 E.00954
G1 X188.721 Y96.127 E.02038
G1 X188.918 Y96.324 E.00954
G1 X188.934 Y96.757 E.01484
G1 X189.126 Y97.127 E.0143
G1 X188.721 Y96.722 E.01963
G1 X188.721 Y97.317 E.02038
G1 X190.642 Y99.237 E.0931
G1 X190.214 Y99.404 E.01575
G1 X188.721 Y97.911 E.07233
G1 X188.721 Y98.506 E.02038
G1 X189.933 Y99.718 E.05873
G1 X189.905 Y99.756 E.00161
G1 X189.818 Y100.198 E.01544
G1 X188.721 Y99.101 E.05316
G1 X188.721 Y99.696 E.02038
G1 X189.818 Y100.792 E.05316
G1 X189.818 Y101.387 E.02038
G1 X188.721 Y100.29 E.05316
G1 X188.721 Y100.885 E.02038
G1 X189.818 Y101.982 E.05316
G1 X189.818 Y102.577 E.02038
G1 X188.721 Y101.48 E.05316
G1 X188.721 Y102.075 E.02038
G1 X189.818 Y103.171 E.05316
G1 X189.818 Y103.766 E.02038
G1 X188.721 Y102.669 E.05316
G1 X188.721 Y103.264 E.02038
G1 X189.818 Y104.361 E.05316
G1 X189.818 Y104.956 E.02038
G1 X188.721 Y103.859 E.05316
G1 X188.721 Y104.454 E.02038
G1 X189.818 Y105.55 E.05316
G1 X189.818 Y106.145 E.02038
G1 X188.721 Y105.048 E.05316
G1 X188.721 Y105.643 E.02038
G1 X189.818 Y106.74 E.05316
G1 X189.818 Y107.335 E.02038
G1 X188.721 Y106.238 E.05316
G1 X188.721 Y106.833 E.02038
G1 X189.818 Y107.929 E.05316
G1 X189.818 Y108.524 E.02038
G1 X188.721 Y107.427 E.05316
G1 X188.721 Y108.022 E.02038
G1 X189.818 Y109.119 E.05316
G1 X189.818 Y109.714 E.02038
G1 X188.721 Y108.617 E.05316
G1 X188.721 Y109.212 E.02038
G1 X189.818 Y110.308 E.05316
G1 X189.818 Y110.903 E.02038
G1 X188.721 Y109.806 E.05316
G1 X188.721 Y110.401 E.02038
G1 X189.818 Y111.498 E.05316
G1 X189.818 Y112.093 E.02038
G1 X188.721 Y110.996 E.05316
G1 X188.721 Y111.591 E.02038
G1 X189.818 Y112.687 E.05316
G1 X189.818 Y113.282 E.02038
G1 X188.721 Y112.185 E.05316
G1 X188.721 Y112.78 E.02038
G1 X189.818 Y113.877 E.05316
G1 X189.818 Y114.472 E.02038
G1 X188.721 Y113.375 E.05316
G1 X188.721 Y113.97 E.02038
G1 X189.818 Y115.066 E.05316
G1 X189.818 Y115.661 E.02038
G1 X188.721 Y114.564 E.05316
G1 X188.721 Y115.159 E.02038
G1 X189.818 Y116.256 E.05316
G1 X189.818 Y116.851 E.02038
G1 X188.721 Y115.754 E.05316
G1 X188.721 Y116.349 E.02038
G1 X190.006 Y117.633 E.06225
G1 X190.876 Y118.503 F9000
G1 F4800
G1 X191.096 Y118.723 E.01068
G1 X190.799 Y119.021 E.01441
G1 X188.721 Y116.943 E.10068
G1 X188.721 Y117.538 E.02038
G1 X190.501 Y119.318 E.08627
G1 X190.204 Y119.616 E.01441
G1 X188.721 Y118.133 E.07186
G1 X188.721 Y118.728 E.02038
G1 X189.907 Y119.913 E.05744
G1 X189.609 Y120.21 E.01441
G1 X188.721 Y119.322 E.04303
G1 X188.721 Y119.917 E.02038
G1 X189.312 Y120.508 E.02862
G1 X189.185 Y120.635 E.00616
G1 X189.085 Y120.876 E.00893
G1 X188.721 Y120.512 E.01762
G1 X188.721 Y121.107 E.02038
G1 X188.918 Y121.303 E.00954
G1 X188.918 Y121.898 E.02038
G1 X188.721 Y121.701 E.00954
G1 X188.721 Y122.296 E.02038
G1 X188.918 Y122.493 E.00954
G1 X188.918 Y123.088 E.02038
G1 X188.721 Y122.891 E.00954
G1 X188.721 Y123.486 E.02038
G1 X188.918 Y123.683 E.00954
G1 X188.918 Y124.277 E.02038
G1 X188.721 Y124.08 E.00954
G1 X188.721 Y124.675 E.02038
G1 X188.918 Y124.872 E.00954
G1 X188.918 Y125.467 E.02038
G1 X188.721 Y125.27 E.00954
G1 X188.721 Y125.617 E.01189
G1 X188.706 Y125.796 E.00617
G1 X188.688 Y125.831 E.00134
G1 X188.918 Y126.062 E.01117
G1 X188.918 Y126.656 E.02038
G1 X188.484 Y126.222 E.02103
G1 X188.439 Y126.309 E.00334
G1 X188.134 Y126.467 E.01178
G1 X188.455 Y126.788 E.01552
G1 X187.86 Y126.788 E.02038
G1 X187.663 Y126.591 E.00954
G1 X187.068 Y126.591 E.02038
G1 X187.265 Y126.788 E.00954
G1 X186.67 Y126.788 E.02038
G1 X186.474 Y126.591 E.00954
G1 X185.879 Y126.591 E.02038
G1 X186.076 Y126.788 E.00954
G1 X185.481 Y126.788 E.02038
G1 X185.284 Y126.591 E.00954
G1 X184.689 Y126.591 E.02038
G1 X184.886 Y126.788 E.00954
G1 X184.291 Y126.788 E.02038
G1 X184.095 Y126.591 E.00954
G1 X183.5 Y126.591 E.02038
G1 X183.697 Y126.788 E.00954
G1 X183.102 Y126.788 E.02038
G1 X182.905 Y126.591 E.00954
G1 X182.31 Y126.591 E.02038
G1 X182.507 Y126.788 E.00954
G1 X181.912 Y126.788 E.02038
G1 X181.716 Y126.591 E.00954
G1 X181.121 Y126.591 E.02038
G1 X181.318 Y126.788 E.00954
G1 X180.723 Y126.788 E.02038
G1 X180.526 Y126.591 E.00954
G1 X179.931 Y126.591 E.02038
G1 X180.128 Y126.788 E.00954
G1 X179.533 Y126.788 E.02038
G1 X179.337 Y126.591 E.00954
G1 X178.742 Y126.591 E.02038
G1 X178.939 Y126.788 E.00954
G1 X178.344 Y126.788 E.02038
G1 X178.147 Y126.591 E.00954
G1 X177.552 Y126.591 E.02038
G1 X177.749 Y126.788 E.00954
G1 X177.154 Y126.788 E.02038
G1 X176.958 Y126.591 E.00954
G1 X176.363 Y126.591 E.02038
G1 X176.56 Y126.788 E.00954
G1 X175.965 Y126.788 E.02038
G1 X175.768 Y126.591 E.00954
G1 X175.173 Y126.591 E.02038
G1 X175.37 Y126.788 E.00954
G1 X174.775 Y126.788 E.02038
G1 X174.579 Y126.591 E.00954
G1 X173.984 Y126.591 E.02038
G1 X174.181 Y126.788 E.00954
G1 X173.586 Y126.788 E.02038
G1 X173.389 Y126.591 E.00954
G1 X172.794 Y126.591 E.02038
G1 X172.991 Y126.788 E.00954
G1 X172.396 Y126.788 E.02038
G1 X172.2 Y126.591 E.00954
G1 X171.605 Y126.591 E.02038
G1 X171.802 Y126.788 E.00954
G1 X171.207 Y126.788 E.02038
G1 X171.01 Y126.591 E.00954
G1 X170.415 Y126.591 E.02038
G1 X170.612 Y126.788 E.00954
G1 X170.017 Y126.788 E.02038
G1 X169.821 Y126.591 E.00954
G1 X169.226 Y126.591 E.02038
G1 X169.423 Y126.788 E.00954
G1 X168.828 Y126.788 E.02038
G1 X168.631 Y126.591 E.00954
G1 X168.036 Y126.591 E.02038
G1 X168.233 Y126.788 E.00954
G1 X167.638 Y126.788 E.02038
G1 X167.441 Y126.591 E.00954
G1 X166.847 Y126.591 E.02038
G1 X167.044 Y126.788 E.00954
G1 X166.449 Y126.788 E.02038
G1 X166.252 Y126.591 E.00954
G1 X165.657 Y126.591 E.02038
G1 X165.854 Y126.788 E.00954
G1 X165.259 Y126.788 E.02038
G1 X165.062 Y126.591 E.00954
G1 X164.468 Y126.591 E.02038
G1 X164.665 Y126.788 E.00954
G1 X164.07 Y126.788 E.02038
G1 X163.873 Y126.591 E.00954
G1 X163.278 Y126.591 E.02038
G1 X163.475 Y126.788 E.00954
G1 X162.88 Y126.788 E.02038
G1 X162.683 Y126.591 E.00954
G1 X162.089 Y126.591 E.02038
G1 X162.286 Y126.788 E.00954
G1 X161.691 Y126.788 E.02038
G1 X161.494 Y126.591 E.00954
G1 X160.899 Y126.591 E.02038
G1 X161.284 Y126.975 E.01863
; stop printing object LegUPart-3.stl id:0 copy 0
; printing object LegUPart.stl id:0 copy 0
G1 E-.84 F1800
;WIPE_START
G1 F4800
G1 X160.899 Y126.591 E-.19575
G1 X161.355 Y126.591 E-.16425
;WIPE_END
G1 Z.6 F9000
G1 X131.769 Y167.741 Z.6
G1 Z.2
G1 E1.2 F1800
;TYPE:Inner wall
;WIDTH:0.459999
G1 X131.885 Y167.786 E.00424
G1 X133.072 Y167.786 E.04033
G1 X130.543 Y170.315 E.12155
G1 X130.36 Y170.758 E.01627
G1 X130.36 Y176.592 E.1983
G1 X101.924 Y176.592 E.96643
G1 X101.328 Y176.56 E.02029
G1 X101.328 Y175.735 E.02804
G1 X101.932 Y175.686 E.02061
G1 X128.828 Y175.686 E.91409
G1 X128.936 Y175.677 E.00369
G1 X129.271 Y175.503 E.01281
G1 X129.444 Y175.169 E.01281
G1 X129.454 Y175.061 E.00369
G1 X129.454 Y141.718 E1.13321
G1 X129.271 Y141.276 E.01627
G1 X128.828 Y141.092 E.01627
G1 X101.924 Y141.092 E.91437
G1 X101.328 Y141.06 E.02029
G1 X101.328 Y140.235 E.02804
G1 X101.932 Y140.186 E.02061
G1 X130.36 Y140.186 E.96615
G1 X130.369 Y146.129 E.20197
G1 X130.543 Y146.463 E.01281
G1 X133.072 Y148.992 E.12155
G1 X131.885 Y148.992 E.04033
G1 X131.463 Y149.156 E.01539
G1 X131.318 Y149.355 E.00837
G1 X131.26 Y149.618 E.00915
G1 X131.26 Y167.161 E.59623
G1 X131.318 Y167.424 E.00915
G1 X131.463 Y167.623 E.00837
G1 X131.732 Y167.727 E.00979
G1 X131.885 Y167.369 F9000
;TYPE:Outer wall
G1 F1800
G1 X134.079 Y167.369 E.07455
G1 X130.838 Y170.61 E.15577
G1 X130.777 Y170.758 E.00542
G1 X130.777 Y177.009 E.21248
G1 X101.951 Y177.009 E.97971
G1 X100.911 Y176.944 E.0354
G1 X100.911 Y175.35 E.05416
G1 X101.916 Y175.269 E.03426
G1 X128.828 Y175.269 E.91466
G1 X128.976 Y175.208 E.00542
G1 X129.037 Y175.061 E.00542
G1 X129.037 Y141.718 E1.13321
G1 X128.976 Y141.571 E.00542
G1 X128.828 Y141.509 E.00542
G1 X101.723 Y141.499 E.92122
G1 X100.911 Y141.444 E.02766
G1 X100.911 Y139.85 E.05416
G1 X101.916 Y139.769 E.03426
G1 X130.777 Y139.769 E.98089
G1 X130.777 Y146.021 E.21248
G1 X130.838 Y146.168 E.00542
G1 X134.079 Y149.409 E.15577
G1 X131.885 Y149.409 E.07455
G1 X131.745 Y149.464 E.00513
G1 X131.677 Y149.618 E.00572
G1 X131.677 Y167.161 E.59623
G1 X131.745 Y167.315 E.00572
G1 X131.848 Y167.355 E.00377
G1 E-.84
;WIPE_START
G1 X132.848 Y167.361 E-.36
;WIPE_END
G1 Z.6 F9000
G1 X129.342 Y140.353 Z.6
G1 Z.2
G1 E1.2 F1800
;TYPE:Bottom surface
;WIDTH:0.46348
G1 F4800
G1 X130.005 Y141.016 E.03212
